X:1
T:Missa In Honorem SS. Trium Regum
T:MISSA IN HONOREM SS. TRIUM REGUM ANNO ECCLESIAE METROPLITANAE COLONIENSIS ABSOLUTAE Friedrich Koenen (1829-1887)
T:© Edition Monika Feinen, Creative Commons Attribution-NonCommercial-ShareAlike 4.0
T:© Edition Monika Feinen, Creative Commons Attribution-NonCommercial-ShareAlike 4.0
T:© Edition Monika Feinen, Creative Commons Attribution-NonCommercial-ShareAlike 4.0
T:© Edition Monika Feinen, Creative Commons Attribution-NonCommercial-ShareAlike 4.0
T:© Edition Monika Feinen, Creative Commons Attribution-NonCommercial-ShareAlike 4.0
T:© Edition Monika Feinen, Creative Commons Attribution-NonCommercial-ShareAlike 4.0
T:© Edition Monika Feinen, Creative Commons Attribution-NonCommercial-ShareAlike 4.0
T:© Edition Monika Feinen, Creative Commons Attribution-NonCommercial-ShareAlike 4.0
T:© Edition Monika Feinen, Creative Commons Attribution-NonCommercial-ShareAlike 4.0
T:© Edition Monika Feinen, Creative Commons Attribution-NonCommercial-ShareAlike 4.0
T:© Edition Monika Feinen, Creative Commons Attribution-NonCommercial-ShareAlike 4.0
T:© Edition Monika Feinen, Creative Commons Attribution-NonCommercial-ShareAlike 4.0
T:© Edition Monika Feinen, Creative Commons Attribution-NonCommercial-ShareAlike 4.0
T:© Edition Monika Feinen, Creative Commons Attribution-NonCommercial-ShareAlike 4.0
T:© Edition Monika Feinen, Creative Commons Attribution-NonCommercial-ShareAlike 4.0
T:© Edition Monika Feinen, Creative Commons Attribution-NonCommercial-ShareAlike 4.0
T:© Edition Monika Feinen, Creative Commons Attribution-NonCommercial-ShareAlike 4.0
T:© Edition Monika Feinen, Creative Commons Attribution-NonCommercial-ShareAlike 4.0
T:© Edition Monika Feinen, Creative Commons Attribution-NonCommercial-ShareAlike 4.0
T:© Edition Monika Feinen, Creative Commons Attribution-NonCommercial-ShareAlike 4.0
T:© Edition Monika Feinen, Creative Commons Attribution-NonCommercial-ShareAlike 4.0
T:© Edition Monika Feinen, Creative Commons Attribution-NonCommercial-ShareAlike 4.0
T:© Edition Monika Feinen, Creative Commons Attribution-NonCommercial-ShareAlike 4.0
T:© Edition Monika Feinen, Creative Commons Attribution-NonCommercial-ShareAlike 4.0
T:© Edition Monika Feinen, Creative Commons Attribution-NonCommercial-ShareAlike 4.0
T:© Edition Monika Feinen, Creative Commons Attribution-NonCommercial-ShareAlike 4.0
T:© Edition Monika Feinen, Creative Commons Attribution-NonCommercial-ShareAlike 4.0
T:© Edition Monika Feinen, Creative Commons Attribution-NonCommercial-ShareAlike 4.0
T:© Edition Monika Feinen, Creative Commons Attribution-NonCommercial-ShareAlike 4.0
T:© Edition Monika Feinen, Creative Commons Attribution-NonCommercial-ShareAlike 4.0
T:© Edition Monika Feinen, Creative Commons Attribution-NonCommercial-ShareAlike 4.0
T:© Edition Monika Feinen, Creative Commons Attribution-NonCommercial-ShareAlike 4.0
T:© Edition Monika Feinen, Creative Commons Attribution-NonCommercial-ShareAlike 4.0
C:Friedrich Koenen
Z:© Edition Monika Feinen, Creative Commons Attribution-NonCommercial-ShareAlike 4.0
%%score [ 1 ( 2 3 ) ( 4 5 ) ( 6 7 ) ]
L:1/8
Q:1/4=58
M:4/4
K:Ab
V:1 treble nm="Soprano."
V:2 treble nm="Alto."
V:3 treble 
V:4 treble-8 nm="Tenore."
V:5 treble-8 
V:6 bass nm="Basso."
V:7 bass 
V:1
"^Sehr ruhig.""^Kyrie." z4 z2!<(! A2!<)! |!>(! e4 B4!>)! | z4 z2 A2 | e4 B4 | z4 z2 A2 | %5
w: e-|lei- son,|e-|lei- son,|e-|
!>(! d4 c2!>)!!f! c2 | A2 B2 c2 c2 |!>(! B2 A2!>)! G2!<(! A2- | AG!<)!!>(! F2!>)! !fermata!G4 || %9
w: lei- son, e-|lei- * son, e-|lei- * * *|* * * son.|
"^Etwas bewegter." z8 | z8 | z8 | z8 | z2!mf! d2 A2 B2 | c2 f4 e2 | d6 c2 | B4 A4 | %17
w: ||||Chri- ste e-|lei- * *||* son,|
!mf!!<(! G4 B2 A2!<)! | A6 G2 |!f! A4 E2 F2 | G2 c4 B2 | A2 f4 e2 |!<(! d4 c4- | c4 B4 | B8!<)! | %25
w: Chri- ste e-|lei- son.|Chri- ste e-|lei- * *|son, e- *|lei- son,|_ e-|lei-|
!ff! c8 |!>(! !fermata!c8!>)! ||[Q:1/4=80]"^."!f!!<(! A4!<)! B3 A | A2 AB c2 A2 | e4 z4 | B4 e3 d | %31
w: |son.|Ky- * ri-|e, e- * lei- *|son,|Ky- * ri-|
 c2 c2 f3 e | e2!>(! d2 c2 B2!>)! | A2 d4 c2 | B4 e4 |!f! e4 f3 e | e4 z4 |!f! d4 e3 d | d4 d4- | %39
w: e, Ky- * ri-|e e- lei- *|son, e- *|lei- son,|Ky- * ri-|e,|Ky- * ri-|e e-|
 d2 cB c2 e2- | e2 d4 c2- | c2 BA G2 A2- | A2 G2 A4"^ritard." | A8- | A2 G2 !fermata!A4 |] %45
w: * lei- * * *|* son, e-|* * * * lei-|* * son.|e-|* lei- son.|
[M:4/4][Q:1/4=102]"^.""^Gloria in excelsis Deo." z4!mf! E4 | E2 !^!F4 E2 | A8-"^ritard." | %48
w: Et|in ter- ra|pax|
 A4 z2"^a tempo"!mf! A2 | A3 B c2 e2 | c4!p! c4- |"^langsamer" c4 B4 |!<(! B2 A2 G4!<)! | %53
w: _ ho-|mi- * * ni-|bus bo-|* nae|vo- lun- ta-|
 A4!>(! G4!>)! | z2"^a tempo"!f! A2 A4 | F2 G2 A4 | z2!p! A A A4- | A4 A2 B2 | c2 A4 G2 | %59
w: * tis.|Lau- da-|* mus te.|Be- ne- di-|* ci- mus|te. A- do-|
 A2 c4 B2 | B4!f! B2 B B | c2 e3 dcB | c6 B2 | B2!p! B3 B B2 |!<(! d3 d c4!<)! |!f! f3 e dcBA | %66
w: ra- * mus|te. Glo- ri- fi-|ca- * * * *|* mus|te. Gra- ti- as|a- gi- mus|ti- * * * * *|
 B2 c d edcB | c2 c2 c4 | A2 d2 d3 d | c8 | A4 E4 | E4 z4 | z2!f! A3 A A2 | c2 B2 A2 G2 | %74
w: * * bi pro- * * *|* pter ma-|* gnam glo- ri-|am|tu- *|am.|Do- mi- ne|De- us, Rex cae-|
 F4- FG A2 | B2 e4 e2 |!>(! e2 d2 c2 B2!>)! |!p! c3 c c2!mf! A2- | A!<(! A A2 A2 d e!<)! | %79
w: le- * * *|stis, De- us|Pa- * ter om-|ni- po- tens. Do-|* mi- ne Fi- * *|
 f2 e2!<(! d2 c2 | d3 d!<)! d2 d2- |!f! d2 _g4 g2 | _g4 e4 | c3 f f4 | f4 d4 |!ff! d4 e4 | f4 c4 | %87
w: * li u- ni-|ge- ni- te Je-|* * su|Chri- ste.|Do- mi- ne|De- us,|A- gnus|De- i,|
 =d3 d d4 | e8 | =d8 |!>(! !fermata!=d8!>)! ||[Q:1/4=63]"^." z4!p! B4 | e2 =d2 c2 B2 | %93
w: Fi- li- us|Pa-||tris.|Qui|tol- * lis pec-|
!<(! B6!<)!!>(! B2!>)! | c8 | F4 F4 |"^string."!<(! G6 G2 | B2!<)! B2 G4 | A4 c4 | f2 e2 _d2 c2 | %100
w: ca- ta|mun-|* di,|mi- se-|re- re no-|bis. Qui|tol- * lis pec-|
 c6 c2 |!<(! _d8!<)! | c4 c4 |!<(! c6 c2 | c4 c2 c2!<)! | f3 f f2 f2 |!>(! e2 dc B4!>)! | %107
w: ca- ta|mun-|* di,|su- sci-|pe de- pre-|ca- ti- o- nem|no- * * *|
 c4!f! c4 |!<(! f4 f2 c2 | f2 e2 (d2!<)! c2) |!ff!"^stringendo" B8- | Bd c4 B2 | %112
w: stram. Qui|se- des ad|dex- te- ram _|Pa-||
!>(! c4!>)!!p! c4- | c2!<(! c2 d2 d2!<)! |!f! c8- | c8 |!>(! !fermata!=A8!>)! || %117
w: tris, mi-|* se- re- re|no-||bis.|
[K:treble][Q:1/4=102]"^." z8 | z8 | z8 | z8 |!f! B4 c3 B | B2 B2 c2 d2 | e4 f3 e | e4 z2 c2 | %125
w: ||||Quo- * ni-|am tu so- lus|Do- * mi-|nus. al-|
 d4 e3 d | d4 z4"^ritenuto" | z8"^a tempo" | z8 | z4 z2!f! c2 | f3 e d2 c2 | B4 c2 d2 | %132
w: tis- * si-|mus,|||Cum|san- cto Spi- ri-|tu, _ in|
!ff! e4 f3 e | e2 _g4 f2 | d4 e3 d | d2 c2 | B2 A A |"^riten." e2 e2 e4 |"^a tempo" e4 z4 | %139
w: glo- * ri-|a De- i|Pa- * *|tris, in|glo- ri- a|De- i Pa-|tris.|
 e4 f3 e | e4 e4- |"^ritard." e8 | !fermata!e8 |] %143
w: A- * *|men, A-||men.|
[K:Eb][M:4/4][Q:1/4=80]"^Sehr mässig und ausdrucksvoll..""^Credo in unum Deum."!<(! G4 A4!<)! | %144
w: Pa- *|
!>(! G4!>)! z2 G2 |!<(! G2 G2 B4!<)! |!>(! B2!>)!!<(! B2 e4- | e2!<)! d2 c4 | %148
w: trem om-|ni- po- ten-|tem, fac- to-|* rem coe-|
 B2"^ritard."!>(! B2 c4 | F2!>)!"^a tempo"!p! F4 F2 | _A3 A A2 c2- | c c c2 f4- | f2 e2 d2 c2 | %153
w: li et ter-|rae, vi- si-|bi- li- um om-|* ni- um et|_ in- vi- si-|
!>(! B6 B2!>)! | B4 z4[Q:1/4=80]"^Etwas bewegter." | z8 | z8 | z8 | z8 | z8 | z8 | z8 | %162
w: bi- li-|um.||||||||
 z2[Q:1/4=90]"^." B4 B2 | B4!>(! c4 | F4 F2!>)! B2- | B2 B2 e3 d | c2 B2 A4 |!>(! A2 G2 F4!>)! | %168
w: Et ex|Pa- tre|na- tum an-|* te om- *|* ni- a|sae- cu- la.|
 z4 z2 B2 | e4 B4 | z4 z2 B2 | f3 B B4 |!ff! e2 e2 g4 | f3 e d2 c2 | B4 B4 |[Q:1/4=94]"^." z8 | %176
w: de|De- o,|de|lu- mi- ne,|De- um ve-|rum de De- o|ve- ro.||
 z8 |!mf! c3 B A2 G2 |!<(! F4 G2 A2!<)! | B4 B2 c2 |!>(! B4 B3 B!>)! | B4"^ritard." A4 | %182
w: |con- sub- stan- ti-|a- * lem|Pa- tri: per-|quem om- ni-|a fa-|
!<(! G2 dc =B2 c2!<)! |!>(! G4!>)!!p![Q:1/4=84]"^." G4 | G4 G2!<(! G2 | c3 c!<)!!>(! c2!>)! c2 | %186
w: * * * * cta|sunt. Qui|pro- pter nos|ho- mi- nes, et|
 F2 F2!<(! F2 G A | B4!<)!!>(! B2!>)! B2 | E2!<(! F2 G2 A2!<)! | B2 cd e2 f2 | g4 f4- | %191
w: pro- pter no- stram sa-|lu- tem de-|scen- * dit de|coe- * * * *||
!>(! f4!>)! !fermata!f4 ||[Q:1/4=66]"^."!p! F4 F2 F2 | A6 A2 | G2 z2 z4 | z8 | z8 | z8 | z8 | %199
w: * lis.|Et in- car-|na- tus|est|||||
 z2 B4 B2 | e4!<(! d4 | c4 c4!<)! |!ff! [cf]3 [cf] !fermata![cf]4 |!pp! F4 F4- | F4 c4- | %205
w: ex Ma-|ri- *|* a|vir- gi- ne:|Et ho-|* mo,|
 c4 z2 c2 | g6 f2 | =e2 d2 c4 |"^ritardando" c8- | c2 c2 !fermata!c4 ||[Q:1/4=76]"^." z8 | z8 | %212
w: _ et|ho- *|* * mo|fa-|* ctus est.|||
 z8 | z4 z2 =e2 | f4 =e4 | z8 | z8 |!p! A6 A2 | A4"^ritard."!>(! A4!>)! |!pp! A6 G2 | %220
w: |pro|no- bis:|||pas- sus|et se-|pul- tus|
 !fermata!A8 ||[Q:1/4=104]"^." z8 | z8 | z8 | z8 | z8 | z8 | z8 | z4!f! B2 e2- | e2 dc d2 B2 | %230
w: est.||||||||se- *|* * * det ad|
 g6 f2 | e2 e4 d2 | c2 B2 A2!mf! A2 | G3 G G2"^majestoso"!<(! G2 | c2 c2 c2 c2!<)! | %235
w: dex- te-|ram Pa- *|* * tris. Et|i- te- rum ven-|tu- rus est cum|
 c3 e !fermata!e2 e e | f6 e2 | d2 c2 B2"^ritenuto"!>(! A2 | G3!>)! G!p! G4 | %239
w: glo- ri- a, ju- di-|ca- re|vi- * vos et|mor- tu- os:|
 z4"^a tempo"!f! G2 G2 | G4 G2 c2 | e4 c4 |!<(! f8-!<)! | f4 !fermata!f4 | z2!f! B4 B2 | c3 c c4 | %246
w: cu- jus|re- gni non|e- rit|fi-|* nis.|Et in|Spi- ri- tum|
 c4 c4 | f3 f f2 f2- | f2 f3 e d2 | e4 e2!p! B2- |!<(! B2 B2!<)! e4 | c2 e e e4 | %252
w: san- ctum,|Do- mi- num et|_ vi- vi- fi-|can- tem: qui|_ ex Pa-|tre Fi- li- o-|
!<(! e2 e2 e4!<)! |!>(! d4!>)! z4 | z8 | z4 z2!p! A2- |!<(! A2 A2"^ritard." A2 _d2 | _d8!<)! | %258
w: que pro- ce-|dit.||si-|* mul a- do-|ra-|
 c2!f! c2"^a tempo" c2 f2- | f2 e _d e2 c2 | _d3 c B2 A2 | _d4 d2 d2 |!<(! c8- | c8!<)! | %264
w: tur et con- glo-|* ri- fi- ca- tur:|qui lo- cu- tus|est per Pro-|phe-||
!>(! !fermata!c4!>)! ||!f! c4 | c4 c4 | =d8 | d4 z2 d2 | d3 d d4- | d4 z2!<(! d2 | d2 d2 g3 g!<)! | %272
w: tas.|Et|u- nam|san-|ctam ca-|tho- li- cam|_ et|a- po- sto- li-|
 g4!ff! g4 | g3 d !fermata!d2!p! d2 | =e3 e e4 | f4 c2 c2 |!<(! B4!<)!!>(! A4!>)! | %277
w: cam Ec-|cle- si- am. Con-|fi- te- or|u- num ba-|pti- sma|
[Q:1/4=99]"^Etwas langsamer und ausdrucksvoller."!p! A3 A A2 A2 |!<(! G2 =B2 c2 A2!<)! | %279
w: in re- mis- si-|o- nem pec- ca-|
!>(! G8!>)! | G4 z4[Q:1/4=96]"^." | z2!f! B2 A2 G2 | F4 G2 A2 | B2 cd e2 f2 | g2 f2 e2 c2 | e8- | %286
w: to-|rum.|Et _ ex-|pe- * cto|re- sur- * re- cti-|o- nem mor- tu-|o-|
 e2 E2!f! F2 B2- | B2 c B A2 G2 | F2 G A B4 | B2 e4 d e | f2 B2 g3 f | e2 d2 c4 | B2 e3 dcB | %293
w: * rum. Et vi-|* tam ven- tu- ri|sae- * cu- li,|et vi- tam ven-|tu- ri sae- *|* cu- li.|A- * * * *|
 c2 e4 d2 | e8 | B2 cd eg f2 | B4 B4 | e8-"^ritard." | e2 d2 !fermata!e4 |] %299
w: |men,|A- * * * * *|men, A-||* * men.|
[K:Ab][M:4/4][Q:1/4=76]"^Sanctus."!p! E4 A4- |!<(! A2 G2 A2 B2 | c8-!<)! | c2 B2 A2 B2 |!>(! c8 | %304
w: San- *|||||
 !fermata!C4!>)! z4 |!p! F6!<(! B2- | B2 =A2 B2 c2 | d6!<)! B2 |!<(! f2 e2 d2 c2 | d4 B4 | c8!<)! | %311
w: ctus,|san- *||* ctus,|san- * * *|||
!>(! !fermata!c8!>)! |!pp! c8 | C8 | z8 | z8 | z8 |!mf! c3 c c4 | f4 d4 | c6 B2 | A4!f! A3 A | %321
w: ctus,|san-|ctus||||Do- mi- nus|De- us|Sa- ba-|oth, Do- mi-|
!<(! A2 c4 c2!<)! |!ff! B2 =d2 f2 e2 |"^ritard." =d2 e4 d2 | !fermata!e8 || %325
w: nus De- us|Sa- * * *|* * ba-|oth!|
[M:3/4][Q:1/4=98]"^."!mf! E3 E E2 |!<(! FG AB c2 | de f2!<)! d2 | B2 e2 d2 | c4 z2 | z6 | d3 d d2 | %332
w: Ple- ni sunt|cae- * * * *|* * * li|et ter- *|ra,||ple- ni sunt|
 e2 e2 d2 | c2 A4 |!<(! FGA B c2!<)! |!<(! f2 d2 c2!<)! | e6 | ABc d e2 | e6 | %339
w: cae- li et|ter- ra|glo- * * ri- a|tu- * a,|glo-|* * * ri- a|tu-|
 e4[Q:1/4=80]"^." z!f! e | e2 e2 z e | f2 f2 z f | f2 f2 z f |!<(! _g6!<)! |!>(! f4!>)!!ff! f f | %345
w: a. Ho-|san- na, ho-|san- na, ho-|san- na, ho-|san-|na in ex-|
 e6 |"^ritardando" e6- | !fermata!e6 || %348
w: cel-|sis.|_|
[M:4/4][Q:1/4=54]"^Sehr ruhig vorzutragen.."!p!!<(! c4!<)! d2 c2 | c8- | c2 BA G4 | %351
w: Be- * ne|di-||
 F2 f3/2 e/ e2 c2 | d4 d4- |!>(! d2 c2!>)! d2!p! d2 | (c4!<(! d)e!<)! f d | %355
w: ctus, be- ne- di- ctus,|qui ve-|* * nit in|no- * * mi- ne|
!>(! e2 d2 c2!>)!!pp! c2 | c3 =A A2 c2 | d4 d2 d2 | d4 c4 | fedc B c d2 | %360
w: Do- mi- ni, in|no- mi- ne, in|no- mi- ne|Do- *|* * * * * mi- ni,|
!pp!"^ritard." c2 c2 c2"^a"!p! c2 |"^tempo" c3 G G2!<(! c2- | c2!<)! d3/2 c/!>(! c2!>)!!p! c2- | %363
w: Do- mi- ni, in|no- mi- ne Do-|* * mi- ni, Do-|
 cBA B c2 c2 | B2 A2 G2!pp! A2- |!<(! A3!<)!!>(! G!>)! !fermata!A2 z!p![Q:1/4=60]"^." c || %366
w: * * * mi- ni, in|no- mi- ne Do-|* mi- ni. Ho-|
[M:3/4] c2 c2 z c | d2 d2 z d | d2 d2 z!<(! d | d6!<)! |!>(! d4!>)!!<(! d d | d6-!<)! | d4!>(! c2 | %373
w: san- na, ho-|san- na, ho-|san- na, ho-|san-|na in ex-|cel-||
 !fermata!d6!>)! |][M:4/4][Q:1/4=80]"^.""^Agnus Dei." z8 |!<(! d4 d2!<)! d2- | %376
w: sis.||A- gnus De-|
 d2 c2!>(! B2 A2!>)! |!<(! G2 F4 E2!<)! | A4!>(! A2!>)! A2 |!<(! B2 c2 B4- |!f! B8!<)! | B4!p! B4 | %382
w: * * i, qui|tol- * *|* lis pec-|ca- ta mun-||di, mi-|
!<(! d6 d2 | c4!<)! f2 _e2 | _d2 c2 B2 A2 |!>(! c4!>)! !fermata!c4 | z8 |!mf! f4 f4 | %388
w: * se-|re- * re|no- * * *|* bis.||A- gnus|
 e2 d2 c2!<(! B2 | A4 A2!<)! A2 | d2 c2 B2 d2 |!>(! c8 | c4!>)!!pp! A4 |!<(! c6 A2 | G6 c2 | %395
w: De- * i, qui|tol- lis pec-|ca- * * ta|mun-|di, mi-|* se-|re- re|
 =e8-!<)! |!ff! e4 =d4 |!>(! !fermata!c4!>)!!mf! c4 | d6 B2 | B2 =A2 B2 c2 | d4 d2 d2 | %401
w: no-||bis. A-|* gnus|De- * i, qui|tol- lis pec-|
 d2 c2 B2 A2 |"^ritard."!>(! c4!>)! !fermata!B4 |[Q:1/4=96]"^." z8 | z4!p! d4- | d4 c4 | f4 e4- | %407
w: ca- * * ta|mun- di,||do-|* na|no- bis|
 e4!<(! d4- | d2 c2 B2 A2 | e4!<)!!>(! e4!>)! | z8 |"^stringendo"!mf!!<(! B4 e4 | e4 _g4!<)! | %413
w: _ pa-||* cem,||do- na|no- *|
!f! f4 c4 | f4 e4 | d4 c4 |"^stringendo"!<(! B4 A4 | e8- | e8-!<)! |!ff! e8 |!>(! e8!>)! | %421
w: * bis|pa- *||* cem,|pa-|||cem,|
!p!"^ritard."!<(! A4 B4!<)! |!>(! !fermata!E8!>)! |] %423
w: pa- *|cem.|
V:2
!p!!<(! E2 F3/2!<)! E/ E2!<(! E2!<)! |!>(! E4 E4!>)! |!mf!!<(! D2 E3/2!<)! D/ D2 A2 | AG F2 G4 | %4
w: Ky- * ri- e e-|lei- son,|Ky- * ri- e e-|lei- * * son,|
!f!!<(! F2 G3/2!<)! F/ F2 A2- |!>(! A2 G2 A2!>)!!f! A2 | F2 G2 A2 A2 |!>(! F4!>)! E2!<(! =D2- | %8
w: Ky- * ri- e e-|lei- * son, e-|lei- * son, e-|lei- * *|
 DE!<)!!>(! =D2!>)! !fermata!E4 || z8 | z8 | z2!mf! A2 E2 F2 |!<(! _G2 B4!<)! A2 | F4 F4 | %14
w: * * * son.|||Chri- ste e-|lei- * *|son, e-|
 _G2 A2 B4 | A4 =G4 | F6 E2 |!mf!!<(! E4 F2 E2 | F2!<)! D4 E2 |!f! E4 C4 | D2 C2 F2 G2 | %21
w: lei- * *||* son,|Chri- ste e-|lei- * son,|Chri- ste|e- lei- * *|
 A4 G2 A2- |!<(! A2 G2 A4- | A4 F4 | F8!<)! |!ff! G8 |!>(! !fermata!G8!>)! ||!f!!<(! F4-!<)! F3 F | %28
w: son, e- *|lei- * son,|_ e-|lei-||son.|Ky- * ri-|
 F8 |!<(! G4!<)! A3 G | G2 G2 G4- | G2 A2 F2 G2 |!>(! A4 G4!>)! | F2 A2 G2 A2- | A2!>(! GF!>)! G4 | %35
w: e,|Ky- * ri-|e e- lei-|* son, Ky- ri-|e e-|lei- * * *|* * * son,|
!f! A4- A3 A | A2!mf! E2 _G2 F2 | F2 B4 =A2 | B2 F2 G2 A2 | G4 AGFE | F4 G2 A2 | F6 E2 | %42
w: Ky- * ri-|e, Ky- * ri-|e, Ky- ri-|e e- lei- *||* son, e-|lei- *|
 D4 C2!p!!<(! E2 | _G3!<)! F F2 E2 |!>(! D4!>)! !fermata!C4 |][M:4/4] z4!mf! C4 | C4 C2 B,2 | %47
w: * son, Ky-|* ri- e e-|lei- son.|Et|in ter- ra|
!<(! C3 D E2 G2!<)! |!>(! F4!>)! z2!mf! F2 | E3 G A2 B2 | A4!p! A4- | A4 F4 |!<(! F2 F2 E4-!<)! | %53
w: pax _ _ _|_ ho-|mi- * * ni-|bus bo-|* nae|vo- lun- ta-|
 E2 =D2!>(! E4!>)! | z2!f! E2 E4 | D2 D2 E4 | z2!p! A A A2 G2 | F4 F2 G2 | A2 E4 D2 | C2 AG F2 G2 | %60
w: * * tis.|Lau- da-|* mus te.|Be- ne- di- *|* ci- mus|te. A- do-|ra- * * * mus|
 G4!f! G2 G G | A2 c3 BAG | AGFE A2 G2 | G2!p! G3 G G2 |!<(! F2 B3 B =A2!<)! |!f! B2 F2 BAGF | %66
w: te. Glo- ri- fi-|ca- * * * *|* * * * * mus|te. Gra- ti- as|a- * gi- mus|ti- * * * * *|
 G2 F2 E4- | E2 A2 AGFE | F2 F2 F2 G2 | A8 | E2 C2 E2 D2 | C4 z4 | z2!f! A3 A A2 | A2 G2 F2 E2 | %74
w: * bi pro-|* pter ma- * * *|* gnam glo- ri-|am|tu- * * *|am.|Do- mi- ne|De- us, Rex cae-|
 D4- DE F2 | G2 A2 B4 |!>(! A3 G A2 B2!>)! |!p! B2 A G A2!mf! A2 | A2!<(! G2 F3 G!<)! | %79
w: le- * * *|stis, De- us|Pa- * ter om-|ni- * po- tens. Do-|mi- ne Fi- *|
 A2 _G2!<(! F2 E2 | F2 A2 B4!<)! |!f! B6 B2 | B4 B2 B2- | B2 A2 A4 | B4 B4 |!ff! B4 B4 | =A4 A4 | %87
w: * li u- ni-|ge- ni- te|Je- su-|Chri- ste Do-|* mi- ne|De- us,|A- gnus|De- i,|
 B3 B B4 | B4 F2 =A2 | B8 |!>(! !fermata!B8!>)! || z4!p! B4 | B2 A2 G2 G2 |!<(! F6!<)!!>(! G2!>)! | %94
w: Fi- li- us|Pa- * *||tris.|Qui|tol- * lis pec-|ca- ta|
 A2 G2 F2 E2- | E=D C2 D4 |"^string."!<(! E6 E2 | F2!<)! F4 =E2 | F4 A4 | A4 A2 A2 | G6 A2 | %101
w: mun- * * *|* * * di,|mi- se-|re- re no-|bis. Qui|tol- lis pec-|ca- ta|
!<(! F2 A2 G2 F2-!<)! | F=E =D2 E4 |!<(! c6 c2 | c2 B2 A2 G2!<)! | (F2 G) A G4 |!>(! A2 A4 G2!>)! | %107
w: mun- * * *|* * * di,|su- sci-|pe _ de- pre-|ca- * ti- o-|nem, no- *|
 A4!f! G4 |!<(! F4 F2 c2 | B3 =A (B2!<)! _A2) |!ff! AG F2 E2 A2 | G2 A4 G2 |!>(! A4!>)!!p! A4- | %113
w: stram. Qui|se- des ad|dex- ter- ram _|Pa- * * * *||tris, mi-|
 A2!<(! G2 F2 F2!<)! |!f! =E2 FG A4 | G8 |!>(! !fermata!F8!>)! || z8 | z8 | z8 | z8 |!f! G4 A3 G | %122
w: * se- re- re|no- * * *||bis.|||||Quo- * ni-|
 G2 G2 A2 B2 | c4 A4 | A2 E2 _G2 F2 | B2 B4 B2 | B2!p!!<(! F2 _G2 F2!<)! | F4 D4 | z4 z2!f! d2 | %129
w: am tu so- lus|Do- mi-|nus. Tu so- lus|al- tis- si-|mus Je- * su|Chri- ste.|Cum|
 c3 B A2 G2 | F2 A2 B2 A2 | G3 G A2 A2 |!ff! A6 A2 | A2 B4 =A2 | B8 | B2 F2 | G2 A A | G2 A4 G2 | %138
w: san- cto Spi- ri-|tu, cum san- cto|Spi- ri- tu, in|glo- ri-|a De- i|Pa-|tris, in|glo- ri- a|De- i Pa-|
 A4 z4 | A8 | A4 c4 | B2 A4 G2 | !fermata!A8 |][K:Eb][M:4/4]!<(! G6 D2!<)! |!>(! E4!>)! z2 E2 | %145
w: tris.|A-|men, A-||men.|Pa- *|trem om-|
!<(! E2 E2 F4!<)! |!>(! F2!>)!!<(! F2 A4 | G4!<)! G4 | G2!>(! F2 E4 | D2!>)!!p! D4 D2 | %150
w: ni- po- ten-|tem, fac- to-|rem coe-|li et ter-|rae, vi- si-|
 C2 F2 F2 F2- | F F F2 A4- | A4 A2 G2 | F2!>(! F2 E2 D2!>)! | E2!mf! G4 B2 | B4 F2 G2 | %156
w: bi- li- um om-|* ni- um et|_ in- *|vi- si- bi- li-|um. Et in|u- * num|
!<(! A2 c4 B2!<)! |!>(! G2!>)!!p! G4 A2 |!<(! F4 G4!<)! |!>(! A2!>)!!mf! A3 A A2 | G4 G4 | %161
w: Do- * mi-|num Je- sum|Chri- *|stum, Fi- li- um|De- i|
 F2 E2 F3 F | G4 G2 G2 | F4!>(! E4 | D4 D2!>)! F2- | F2 F2 E2 G2 | A2 G2 (F2 E2) | %167
w: u- ni- ge- ni-|tum. Et ex|Pa- tre|na- tum an-|* te om- *|* ni- a _|
!>(! D2 E2 D4!>)! |!<(! G2 A2!<)!!>(! G4!>)! | z4 z2 F2- | F2 G2 F4 | z8 |!ff! G2 G2 B4 | %173
w: sae- cu- la.|De- * um|lu-|* * men,||De- um ve-|
 A3 G F2 E2 |!<(! D2 E2!<)!!>(! D4!>)! |!mf! F3 E D2 F2 | B,2 CD E2 G2 | A3 G F2 E2 | %178
w: rum de De- o|ve- * ro.|Ge- ni- tum, non|fac- * * * tum,|con- sub- stan- ti-|
!<(! D6 F2!<)! | F2 E2 G2 E2- | E2!>(! G2 B2 A2!>)! | G4 F4- |!<(! F6 E2!<)! |!>(! D4!>)!!p! D4 | %184
w: a- lem|Pa- * tri: per-|* quem om- ni-|a fa-|* cta|sunt. Qui|
 E4 E2!<(! G2- | G2 F E!<)!!>(! F2!>)! F2 | F2 F2!<(! F2 F F | FE D2!<)!!>(! E2!>)! E2 | %188
w: pro- pter nos|_ ho- mi- nes, et|pro- pter no- stram sa-|lu- * * tem de-|
 C2!<(! D2 E2 E2!<)! | E2 A2 G2 B2- | B4 =A4- |!>(! A2 B2!>)! !fermata!B4 ||!p! D4 D2 D2 | %193
w: scen- * dit de|coe- * * *||* * lis.|Et in- car-|
 C2 F2 E2 D2 | E2 C2 C2 D2 | E4 G4- | G8 | F2!p! F4 F2 | B4 A4 | G4 F4 | G4!<(! A4 | G6 G2!<)! | %202
w: na- * * tus|est de Spi- ri-|tu san-||cto ex Ma-|ri- *|a, Ma-|ri- *|* a|
!ff! F3 F !fermata!F4 |!pp! C4 =B,4 | C2!<(! F4 =E2 | F4!<)! C2 c2- | c2 =B2 c2 =A2 | %207
w: vir- gi- ne:|Et ho-||* mo, et|_ ho- * mo|
 G=A B2 c2 B2 | =A2 G4 F2- | F2 =E2 !fermata!F4 || z8 | z8 |!p!!<(! (G4!<)! A3) G | %213
w: fa- * * * *||* ctus est.|||e- * ti-|
!<(! (G2 AB!<)! c2)!f! c2- | c2 B2 c2 G2 | c3 B A2 G2 | A4 F2!p! F2- | F2 F2!<(! F4 | %218
w: am _ _ _ pro|_ no- bis: sub|Pon- ti- o Pi-|la- to pas-|* sus, pas-|
 F4!<)!!>(! E2 E2-!>)! |!pp! E2 =D2 E2 E2 | !fermata!E8 || z8 | z8 | z8 | z8 | z8 | %226
w: sus et se-|* pul- * tus|est.||||||
!f! !^!F2 !^!B2 !^!B2 =AG | =A2 F2 B2 d2- | d c BA GF G2 | A2 A2 G2 F2 | E2 F2 G4 | G2 A2 B2 A2 | %232
w: Et a- scen- * *|* dit in cae-||lum: se- det ad|dex- te- ram|Pa- * * *|
 G4 F2!mf! F2 | F2 E2 D2!<(! G2 | G3 F E2 G2!<)! | A3 A !fermata!A2 A A | A2 A2 A4- | %237
w: * tris. Et|i- te- rum ven-|tu- rus est cum|glo- ri- a, ju- di-|ca- re vi-|
 A2 G2 F2!>(! F2- | F2!>)! E2!p! D4 | z4!f! D2 D2 | E4 E2 G2 | G4 G4 |!<(! F2 G2 =A4-!<)! | %243
w: * vos et mor-|* tu- os:|cu- jus|re- gni non|e- rit|fi- * *|
 A4 !fermata!B4 | z2!f! F4 F2 | G3 G G2 G2- | G2 F=E F2 F2- | F2 F2 A2 A2- | A A A4 A2 | %249
w: * nis.|Et in|Spi- ri- tum san-|* * * ctum, Do-|* mi- num et|_ vi- vi- fi-|
 A2 G2 G2!p! G2- |!<(! G2 F2!<)! E4 | A2 A A A2 G2 |!<(! F2 E2 G2 F2!<)! |!>(! F4!>)! z4 | z8 | %255
w: can- * tem: qui|_ ex Pa-|tre Fi- li- o- *|que pro- ce- *|dit.||
 z4!p! C2 F2- |!<(! F2 F2 F2 F2 | F4 G4!<)! | A2!f! A2 A2 A2- | A2 G A G2 A2 | F2 A2 F2 F2 | %261
w: si- *|* mul a- do-|ra- *|tur et con- glo-|* ri- fi- ca- tur:|qui lo- cu- tus|
 F2 F4 GF |!<(! =EFGA B2 A2 | G2 A2 G4!<)! |!>(! !fermata!G4!>)! ||!f! =A4 | =A4 A4 | B8 | %268
w: est per Pro- *|phe- * * * * *||tas.|Et|u- nam|san-|
 B4 z2 F2 | G3 G G4- | G4 z2!<(! B2 | B2 =A2 G3 [GB]!<)! | [GB]4!ff! [Gc]4 | %273
w: ctam ca-|tho- li- cam|_ et|a- po- sto- li-|cam Ec-|
 [G=B]3 [GB] !fermata![GB]2!p! G2 | G3 G G4 | A4 F2 F2 |!<(! F2 =E2!<)!!>(! F4!>)! | %277
w: cle- si- am. Con-|fi- te- or|u- num ba-|pti- * sma|
!p! F3 F F2 F2 |!<(! F2 F2 E2 E2!<)! | D2!>(! F2 E2 D2!>)! | C4 z4 | z2!f! G2 F2 E2 | D4 G2 F2 | %283
w: in re- mis- si-|o- nem pec- ca-|to- * * *|rum.|Et _ ex-|pe- * cto|
 E2 A2 G2 B2 | B2 A2 G2 E2 | G4 A2 G2 | E4!f! D2 G2- | G2 E G F2 E2 | D2 G3 G F2 | E2 G4 F G | %290
w: re- sur- re- cti-|o- nem mor- tu-|o- * rum.|rum. Et vi-|* tam ven- tu- ri|sae- * cu- li,|et vi- tam ven-|
 A2 F2 B4 | c2 B2 A4 | G4 A3 B | A2 GA B3 A | G2 c3/2 B/ B2 A2 | G6 A2 | G2 A3/2 G/ G2 [DA]2 | %297
w: tu- ri sae-|* cu- li.|A- * *||men, A- men, A- men,|A- *|men, A- men, A- men,|
 G4 A2 c2- | c2 A2 !fermata!G4 |][K:Ab][M:4/4]!p! C4 D2 E2 |!<(! F6 G2 | A6 G2!<)! | F8- | %303
w: A- * *|* * men.|San- * *||* ctus,|san|
!>(! F2 =E2 =D2 C2 | !fermata!C4!>)! z4 |!p! D6 F2 |!<(! E8 | D2!<)! E2 F4- |!<(! F4 =A4 | %309
w: |ctus,|san- *||* * ctus,|_ san-|
 B2 A2 G2 F2 | G2!<)! A2 G4 |!>(! !fermata!G8!>)! |!pp! c8 | C8 |!p! F3 F F4 | A4 A4 | %316
w: ||ctus,|san-|ctus|Do- mi- nus|De- us|
!<(! G2 A4 G2!<)! | A4!mf! A3 A | F2 A2 G2 F2 | =E2 G2 A2 G2 | F4!f! F3 F |!<(! E2 A4 A2-!<)! | %322
w: Sa- * ba-|oth, Do- mi-|nus De- * us|Sa- * * ba-|oth, Do- mi-|nus De- us|
!ff! A2 A4 GA | B6 A2 | !fermata!G8 ||[M:3/4]!mf! E3 E E2 | F2 E2 A2 |!<(! F2 F2!<)! F2 | G6 | %329
w: _ Sa- * *|* ba-|oth!|Ple- ni sunt|cae- * li,|cae- li, et|ter-|
 A4 E2 | F3 F E2 | BF B2 F F | E2 G4 | A2 E2 E2 |!<(! D4 C2!<)! |!<(! DEF G A2!<)! | %336
w: * ra,|ple- ni sunt|cae- * * li et|ter- ra,|cae- li et|ter- ra|glo- * * ri- a|
!<(! E3 F G2!<)! | A3 B cA | G2 c3 B | A4 z!f! A | A2 A2 z A | A2 A2 z A | B2 B2 z B |!<(! B6!<)! | %344
w: glo- ri- a|tu- * * *||a. Ho-|san- na, ho-|san- na, ho-|san- na, ho-|san-|
!>(! A4!>)!!ff! A A | G4 A2- | A2 G4 | !fermata!A6 ||[M:4/4] z8 |!p!!<(! G4!<)! A2 G2 | F6 =E2 | %351
w: na in ex-|cel- *||sis.||Be- * ne-|di- *|
 F6 c2 | c2 B3/2 A/ A2 F F |!>(! _G4!>)! F2!p! F2 |!<(! EB!<)! A _G F2 B2- | %355
w: ctus, be-|* * ne- di- ctus, qui|ve- nit in|no- * mi- ne Do- *|
!>(! B=A B2 A2!>)!!pp! F2 | F2 F2 F2 =A2 | B3 F F2 B2- | B_A_GF EFGE | F2 B_A _G2 F2 | %360
w: * * mi- ni, in|no- mi- ne, in|no- mi- ne Do-||* * * mi- ni,|
!pp! =E2 F2 =G2!p! _A2 | G3 =E E2!<(! G2 | A7/2!<)! A/!>(! A2!>)!!p! G2 | F3 F E2 E2 | %364
w: Do- mi- ni, in|no- mi- ne Do-|* mi- ni, Do-|* mi- ni, in|
!<(! E3!<)! =D E2!pp! C_D |!<(! E2!<)!!>(! D2!>)! !fermata!C2 z!p! E ||[M:3/4] E2 E2 z E | %367
w: no- mi- ne Do- *|* mi- ni. Ho-|san- na, ho-|
 F2 F2 z F | F2 F2 z!<(! F | _G6!<)! |!>(! F4!>)!!<(! A A | G6!<)! | A6 |!>(! !fermata!A6!>)! |] %374
w: san- na, ho-|san- na, ho-|san-|na in ex-|cel-||sis.|
[M:4/4]!<(! E4 A4- | A2 G2 A2!<)! B2 | G2 A2!>(! F4!>)! |!<(! E2 D2 C2 E2!<)! | C4!>(! F2!>)! E2 | %379
w: A- *|* * gnus De-|* i, qui|to- * * *|* lis pec-|
!<(! E6 G2 | A4!<)!!f! G2 F2 | G4!p! G4 |!<(! B6 B2 | A4!<)! F4 | F8 |!>(! G4!>)! !fermata!G4 | %386
w: ca- ta|mun- * *|di, mi-|* se-|re- re|no-|* bis.|
!mf! A4 c2 c2- | c2 B2 F2 G2 | A4!<(! G4 | F2 E2 D2!<)! A2 | G2 A2 B2 A2 |!>(! G2 F4 =E2 | %392
w: A- gnus De-||i, qui|tol- * lis pec-|ca- * * ta|mun- * *|
 F4!>)!!pp! F4- | F4!<(! F4 | =E6 G2 | c8!<)! |!ff! =A6 G2 |!>(! !fermata!G4!>)!!mf! F4- | F4 F4 | %399
w: di, mi-|* se-|re- re|no-||bis. A-|* gnus|
 F4 F2 F2 | F2 A2 G2 F2 | E4 F2 E2 |!>(! E2 F2!>)! !fermata!G4 |!p!!<(! E4 A4- | A4!<)! G4 | A8- | %406
w: De- i, qui|tol- * lis pec-|ca- * ta|mun- * di,|do- *|* na|no-|
 A2 F2 G4 | A8 |!<(! G2 E2 F2 A2 | A2 G2!<)!!>(! F2 E2!>)! |!mf! E4!<(! A4- | A4 G4 | A4 B4-!<)! | %413
w: * * bis|pa-||* * cem, _|do- *|* na|no- *|
!f! B2 =A2 A4 | B6 =A2 | B4 A4 |!<(! G4 A4 | G4 A4 | _d4 c4!<)! |!ff! B2 A4 G2 |!>(! A8!>)! | %421
w: * ~- bis|pa- *||* cem,|pa- *|||cem,|
!p!!<(! A4 B4!<)! |!>(! !fermata!E8!>)! |] %423
w: pa- *|cem.|
V:3
 x8 | x8 | x8 | x8 | x8 | x8 | x8 | x8 | x8 || x8 | x8 | x8 | x8 | x8 | x8 | x8 | x8 | x8 | x8 | %19
 x8 | x8 | x8 | x8 | x8 | x8 | x8 | x8 || x8 | x8 | x8 | x8 | x8 | x8 | x8 | x8 | x8 | x8 | x8 | %38
 x8 | x8 | x8 | x8 | x8 | x8 | x8 |][M:4/4] x8 | x8 | x8 | x8 | x8 | x8 | x8 | x8 | x8 | x8 | x8 | %56
 x8 | x8 | x8 | x8 | x8 | x8 | x8 | x8 | x8 | x8 | x8 | x8 | x8 | x8 | x8 | x8 | x8 | x8 | x8 | %75
 x8 | x8 | x8 | x8 | x8 | x8 | x8 | x8 | x8 | x8 | x8 | x8 | x8 | x8 | x8 | x8 || x8 | x8 | x8 | %94
 x8 | x8 | x8 | x8 | x8 | x8 | x8 | x8 | x8 | x8 | x8 | x8 | x8 | x8 | x8 | x8 | x8 | x8 | x8 | %113
 x8 | x8 | x8 | x8 || x8 | x8 | x8 | x8 | x8 | x8 | x8 | x8 | x8 | x8 | x8 | x8 | x8 | x8 | x8 | %132
 x8 | x8 | x8 | x4 | x4 | x8 | x8 | x8 | x8 | x8 | x8 |][K:Eb][M:4/4] x8 | x8 | x8 | x8 | x8 | x8 | %149
 x8 | x8 | x8 | x8 | x8 | x8 | x8 | x8 | x8 | x8 | x8 | x8 | x8 | x8 | x8 | x8 | x8 | x8 | x8 | %168
 x8 | x8 | x8 | x8 | x8 | x8 | x8 | x8 | x8 | x8 | x8 | x8 | x8 | x8 | x8 | x8 | x8 | x8 | x8 | %187
 x8 | x8 | x8 | x8 | x8 || x8 | x8 | x8 | x8 | x8 | x8 | x8 | x8 | x8 | x8 | x8 | x8 | x8 | x8 | %206
 x8 | x8 | x8 | x8 || x8 | x8 | x8 | x8 | x8 | x8 | x8 | x8 | x8 | x8 | x8 || x8 | x8 | x8 | x8 | %225
 x8 | x8 | x8 | x8 | x8 | x8 | x8 | x8 | x8 | x8 | x8 | x8 | x8 | x8 | x8 | x8 | x8 | x8 | x8 | %244
 x8 | x8 | x8 | x8 | x8 | x8 | x8 | x8 | x8 | x8 | x8 | x8 | x8 | x8 | x8 | x8 | x8 | x8 | x8 | %263
 x8 | x4 || x4 | x8 | x8 | x8 | x8 | x8 | x8 | x8 | x8 | x8 | x8 | x8 | x8 | x8 | x8 | x8 | x8 | %282
 x8 | x8 | x8 | x8 | x8 | x8 | x8 | x8 | x8 | x8 | x8 | x8 | x8 | x8 | x8 | E4 A4- | A2 F2 E4 |] %299
[K:Ab][M:4/4] x8 | x8 | x8 | x8 | x8 | x8 | x8 | x8 | x8 | x8 | x8 | x8 | x8 | x8 | x8 | x8 | x8 | %316
 x8 | x8 | x8 | x8 | x8 | x8 | x8 | x8 | x8 ||[M:3/4] x6 | x6 | x6 | x6 | x6 | x6 | x6 | x6 | x6 | %334
 x6 | x6 | x6 | x6 | x6 | x6 | x6 | x6 | x6 | x6 | x6 | x6 | x6 | x6 ||[M:4/4] x8 | x8 | x8 | x8 | %352
 x8 | x8 | x8 | x8 | x8 | x8 | x8 | x8 | x8 | x8 | x8 | x8 | x8 | x8 ||[M:3/4] x6 | x6 | x6 | x6 | %370
 x6 | x6 | x6 | x6 |][M:4/4] x8 | x8 | x8 | x8 | x8 | x8 | x8 | x8 | x8 | x8 | x8 | x8 | x8 | x8 | %388
 x8 | x8 | x8 | x8 | x8 | x8 | x8 | x8 | x8 | x8 | x8 | x8 | x8 | x8 | x8 | x8 | x8 | x8 | x8 | %407
 x8 | x8 | x8 | x8 | x8 | x8 | x8 | x8 | x8 | x8 | x8 | x8 | x8 | x8 | x8 | x8 |] %423
V:4
!p!!<(! c2-!<)! c3/2 c/ c2!<(! c2!<)! |!>(! B4 B4!>)! |!mf!!<(! A2- A3/2!<)! A/ A2 d2 | B4 e4 | %4
w: Ky- * ri- e e-|lei- son,|Ky- * ri- e e-|lei- son,|
!f!!<(! A2- A3/2!<)! A/ A2 e2 |!>(! fe d2 e2!>)!!f! e2 | f4 e2 e2 |!>(! d3 c!>)! B2!<(! A2 | %8
w: Ky- * ri- e e-|lei- * * son, e-|lei- son, e-|lei- * * *|
 B4!<)!!>(! !fermata!B4!>)! ||!mf! e4 B2 c2 |!<(! d2 f4 e2!<)! |!>(! c4!>)! c2 A2 | B4 c4 | %13
w: * son.|Chri- ste e-|lei- * *|son, Chri- ste|e- lei-|
!<(! d8 | e2 d2!<)! _g4 |!>(! f4 e4!>)! | d6 c2 |!mf!!<(! B4 d2 c2!<)! | A4 B4 |!f! c4 A4 | %20
w: |son, e- lei-||* son,|Chri- ste e-|lei- son,|Chri- ste|
 B2 e2 d4 | c2 d4 c2 |!<(! f2 d2 e4 | f4 F2 A2 | B2 d2 f4-!<)! |!ff! f4 =e2 =d2 | %26
w: e- lei- *|son, e- *|lei- * son,|Chri- ste e-|lei- * *||
!>(! !fermata!=e8!>)! ||!f!!<(! c4!<)! d3 c | c4 z4 |!<(! B2 e4!<)! =d3/2 e/ | e4 e4 | e4 d2 B2 | %32
w: son.|Ky- * ri-|e,|Ky- * * ri-|e e-|lei- son, Ky-|
 c2 f2!>(! e2 d2!>)! |!<(! c2 f4!<)! e2- | e2!<(! B3 c d2!<)! |!f!!>(! c2!>)! c2 d3 c | %36
w: * ri- e e-|lei- * *||son, Ky- * ri-|
 c4!mf! B2 =A2 | B4 z4 | z8 |!f! B2 e7/2 A/ A2- | A2 B4 c2 |!>(! d6 c2 | B4!>)! A2!p!!<(! c2 | %43
w: e e- lei-|son,||Ky- * ri- e|_ e- *|lei- *|* son, Ky-|
 e3!<)! d d2 c2 |!>(! B4!>)! !fermata!e4 |][M:4/4]!mf! A6 A2 |!>(! A6!>)! G2 |!p! F4 C4 | %48
w: * ri- e e-|lei- son.|Et in|ter- ra|pax _|
 D4!mf! d4 | c2 B2 A2 G2 | A4!p! e4- | e4 d4 |!<(! d2 c2 B4!<)! | A4!>(! B4!>)! | z2!f! c2 c4 | %55
w: _ ho-|mi- * * ni-|bus bo-|* nae|vo- lun- ta-|* tis.|Lau- da-|
 f2 d2 c4 | z2!p! c c c4 |!<(! de f4 e!<)! d | c2!p! c4!<(! d2 | e2 A4!<)! G2 | G4!f! e2 e e | %61
w: * mus te.|Be- ne- di-|* * * ci- mus|te. A- do-|ra- * mus|te. Glo- ri- fi-|
 e8- | e2 dc e2 e2 | e2!p! e3 e e2 |!<(! B3 B f3 e!<)! |!f! d3 c B2 df | e2 d2 cBAG | c3 B A4- | %68
w: ca-|* * * * mus|te. Gra- ti- as|a- gi- mus _|_ _ _ ti- *|* bi pro- * * *||
 A2 A2 f2 d2 | e8 | c2 A2 G2 G2 | A2!f! c3 c c2 | e4 c4 | f4 cd e2 | f2 e2 d2 c2 | B2 A2 G2 F2 | %76
w: * pter ma- gnam|glo-|* ri- am tu-|am. Do- mi- ne|De- us,|Rex cae- * *|le- * * stis,|De- * * *|
!>(! E2 e4 d2!>)! |!p! c2 c c c2!mf! c2 | d2!<(! e2 f3 e!<)! | d4!<(! f2 _g2 | f2 e2 d2 c2!<)! | %81
w: us Pa- ter|om- ni- po- tens. Do-|mi- ne Fi- *|li u- *|* ni- ge- ni-|
!f! B2 d2 e2 d2 | eBef _g2 _G2 | A2 c2 (d2 c2) | f4 f4 |!ff! _g6 B2 | f4 f4 | f3 f f4 | B2 e2 f4- | %89
w: te Je- * su|Chri- * * * * ste.|Do- mi- ne _|De- us,|A- gnus|De- i|Fi- li- us|Pa- * *|
 f8 |!>(! !fermata![=df]8!>)! || z4!p! B4 | g2 f2 e2 e2 |!<(! e=d c2 d2!<)!!>(! d2!>)! | e4 c4 | %95
w: |tris.|Qui|tol- * lis pec-|ca- * * * ta|mun- *|
 B4 B2"^string."!<(! B2- | B2 B2 B4 | d2!<)! d2 c4 | c4!<(! F2 A2 | c2 e2 f2!<)! f2- | %100
w: * di, mi-|* se- re-|* re no-|bis. Qui _|tol- * lis pec-|
 f=e!>(! =d2 e2 c2!>)! |!<(! B2 c2 _d2 B2!<)! | G4 G2!<(! c2- | c2 c2 c4!<)! | c4 c2 c2- | %105
w: * * * ca- ta|mun- * * *|* di, su-|* sci- pe|de- pre- ca-|
 c2 B A B2 d2 |!>(! e2 f4 e2!>)! | e4!f! =e4 |!<(! f4 f2 f2 | f2 f2!<)! f4 |!ff! fe =d2 e2 f2- | %111
w: * * ti- o- *|nem no- *|stram. *|se- des ad|dex- ter- ram|Pa- * * * *|
 f2 e2 d4 |!>(! c4!>)!!p! c4- | c2!<(! c2 f2 B2!<)! |!f! g2 f4 c2 | B2 G4 c2 | %116
w: |tris, mi-|* se- re- re|no- * *||
!>(! !fermata!!1!!2![cf]8!>)! || z8 | z8 |!f! f4 _g3 f | f2 e2 d2 c2 | e8 | e2 d2 c2 B2 | e4 d3 e | %124
w: bis.|||Quo- * ni-|am tu so- lus|san-|ctus. Tu so- lus|Do- * mi-|
 e2 c2 e2 c2 | f4 e3 f | f2!p!!<(! d2 e2 d2!<)! | c4 B2!f! d2 | c3 B A2 G2 | A2 B2 c2 =e2 | %130
w: nus. Tu so- lus|al- tis- si-|mus, Je- * su|Chri- ste. Cum|san- cto Spi- ri-|tu, cum san- cto|
 f2 c2 d2 ef | =g2 f2 e2 d2 |!ff! c4 d3 c | c2 e4 c2 | d4 _g3 f | f2 c2 | e2 =d d | e2 e2 e2 e2 | %138
w: Spi- * * * *|* ri- tu, in|glo- * ri-|a De- i|Pa- * *|tris, in|glo- ri- a|De- i Pa- tris.|
 e4 f3 e | e4 d3 e | e4 e4- | e8 | !fermata!e8 |][K:Eb][M:4/4]!<(! B4 A4!<)! |!>(! B2!>)! B2 B4 | %145
w: A- * *|men, A- *|men, A-||men.|Pa- *|trem om- ni-|
!<(! e2 e2 e2 d2!<)! |!>(! d2!>)!!<(! d2 c4 | B4!<)! e4 | e2!>(! B2 B2 =A2 | B4!>)! z4 | %150
w: * po- ten- *|tem, fac- to-|rem coe-|li et ter- *|rae,|
 z4 z2!mf! A2- | A A A2 A3 B | c2 e2 f2 e2 | d2!>(! c2 B2 A2!>)! | G4!mf! e4 | d2 d4 B2 | %156
w: om-|* ni- um et _|_ in- vi- si-|bi- * * li-|um. Et|in u- num|
!<(! c4 d4!<)! |!>(! e4!>)!!p! B2 c2 |!<(! d2 f4 =e2!<)! |!>(! f2!>)!!mf! c3 c c2 | _e4 e4 | %161
w: Do- mi-|num Je- sum|Chri- * *|stum, Fi- li- um|De- i|
 c2 c2 c2 d2 | e4 e2 e2 | B6!>(! =A2 | B4 B2!>)! d2- | d2 d2 B4 | c3 c c2 B2 |!>(! A2 B2 B4!>)! | %168
w: u- ni- ge- ni-|tum. Et ex|Pa- tre|na- tum an-|* te om-|* ni- a _|sae- cu- la.|
!mf!!<(! B4!<)!!>(! B4!>)! | z8 | B4 B4 | z8 |!ff! B2 e2 d4 | c2 c2 d2 e2 | %174
w: De- um||lu- men,||De- um ve-|rum de De- o|
!<(! f2 g2!<)!!>(! f2!>)!!mf! d2- | d2 c2 B2 A2 | G6 E2 | F2 G2 A3 A |!<(! B6 c2!<)! | B4 B2 A2 | %180
w: ve- * ro. Ge-|* ni- tum, non|fac- tum,|con- sub- stan- ti-|a- lem|Pa- tri: per-|
 B2!>(! e2 c2 d2 | e2!>)! d2 c4 |!<(! =B3 c d2 c2!<)! |!>(! =B4!>)!!p! B4 | c4 c2!<(! d2 | %185
w: * quem om- ni-|a _ fa-|* * * cta|sunt. Qui|pro- pter nos|
 c3 c!<)!!>(! c2!>)! e2- | e2 d c!<(! d2 d c | B4!<)!!>(! B2!>)! B2 | cB!<(! A2 B2 B2!<)! | %189
w: ho- mi- nes, et|_ pro- pter no- stram s-|lu- tem de|scen- * * dit de-|
 B2 A2 B4 | G2 B2 c2 e2- |!>(! e2 d2!>)! !fermata!d4 ||!p! B4 B2 B2 | A6 A2 | c4 z4 | %195
w: coe- * *||* * lis.|Et in- car-|na- tus|est|
 z2 B2!<(! B2 c2 | d2!<)! e3 d!>(! c2 | d4!>)! z4 | z2 B4 B2 | e4 d4 | c4!<(! f4 | e4 =e4!<)! | %202
w: de Spi- ri-|tu san- * *|cto|ex Ma-|ri- *|a, Ma-|ri- a|
!ff! f3 f !fermata!f4 |!pp! =A4!<(! G2 F2!<)! | =A4 G4 | z2 c2 g4 |!<(! f4 =e2 cd | %207
w: vir- gi- ne:|Et ho- *|* mo,|et ho-|* mo fa- *|
 =e2 f2!<)! g2 f2 |!>(! =e2 d2 c4 | B4!>)! !fermata!=A4 || z8 |!p!!<(! (c4!<)! _d3) c | c4 c2 c2- | %213
w: ||ctus est.||Cru- * ci-|fi- xus e-|
!<(! c2 c2!<)! =e2!f! g2 | f4 g4 | z8 | z8 |!p! c4!<(! c4 | _d4!<)!!>(! c4!>)! |!pp! c2 BA B2 B2 | %220
w: * ti- am pro|no- bis:|||pas- sus|et se-|pu- * * * tus|
 !fermata!c8 || z8 | z8 | z4!f! B3/2 e/ e2 | e2 d c d2 B2 | e2 g3 f e2 | e2 d c d2 e2 | %227
w: est.|||ter- ti- a|di- e, se- cun- dum|scri- ptu- * *|ras. Et a- scen- dit|
 e2 fe dcBA | G2 F2 G2 B2 | A4 B2 A2 | G2 A2 B4 | B8 | c4 c2!mf! c2 | =B2 c2 B2!<(! B2 | %234
w: in cae- * * * * *|* * * lum:|se- det ad|dex- te- ram|Pa-|* tris. Et|i- te- rum ven-|
 G2 G2 c2 d2!<)! | e3 e !fermata!e2!f! c c | c4 d2 e2 | f2 e2 d2!>(! c2 | =B2!>)! c2!p! G4 | %239
w: tu- rus est cum|glo- ri- a, ju- di-|ca- * re|vi- * vos et|mor- tu- os:|
 z4!f! G2 G2 | c4 c2 e2 | c4 e4 |!<(! c2 d2 e2 fg!<)! | f2 e2 !fermata!d4 | z2!f! d4 d2 | %245
w: cu- jus|re- gni non|e- rit|fi- * * * *|* * nis.|Et in|
 =e3 e e4 | c2 c2 f2 ed | c2 c2 d2 c2 | B2 c2 d2 f2 | e4 B2!p! e2- |!<(! e2 d2!<)! c4 | A2 c c B4 | %252
w: Spi- ri- tum|san- ctum. Do- * *|* mi- num et|vi- * vi- fi-|can- tem: qui|_ ex Pa-|tre Fi- li- o-|
!<(! =A4 B2 c2!<)! |!>(! B4!>)!!f! B4 | G2 c4 B A | B2 c2 A2!p! c2- |!<(! c2 c2 _d2 A2 | %257
w: que pro- ce-|dit. Qui|cum Pa- tre et|Fi- li- o si-|* mul a- do-|
 A_d f3 e d2!<)! | e2!f! f2 f2 c2 | _dc B A B2 A2 | A2 f2 _d3 c | B2 A2 B3 A |!<(! G2 gf =e2 f2 | %263
w: ra- * * * *|tur et con- glo-|* * ri- fi- ca- tur:|qui lo- cu- tus|est per Pro- *|* phe- * * *|
 =e2 f4 e2!<)! |!>(! !fermata!=e4!>)! ||!f! f4 | f4 f4 | f8 | f4 z2 B2 | d3 d d4- | d4 z2!<(! d2 | %271
w: |tas.|Et|u- nam|san-|ctam ca-|tho- li- cam|_ et|
 d2 d2 e3 e!<)! | e4!ff! e4 | d3 d !fermata!d2!p! =B2 | c3 c c2 c2- | c2 c2 A4 | %276
w: a- po- sto- li-|cam Ec-|cle- si- am. Con-|fi- te- or u-|* num ba-|
!<(! B4!<)!!>(! c2!>)! c2- |!p! c2!<(! =B2!<)! d2 c2 |!<(! =B2 d2 c2 c2!<)! | =B4!>(! c2 f2!>)! | %280
w: pti- sma in|_ re- mis- si-|o- nem pec- ca-|to- * *|
 e2!f! e2 d2 c2 | B4 c4 | d6 c2 | B2 A2 B3 A | G2 A2 B2 c2 | B2 c4 B2 |!f! G2 c4 B A | %287
w: rum. Et _ ex-|pe- cto|re- sur-|re- cti- o- *|* nem mor- tu-|o- * rum.|Et vi- tam ven-|
 B2 G2 A2 Bc | d6 c2 | B4 G2 c2- | c2 d c B2 G2 | c2 d2 e2 f2 | g3 f e4 | e2 ef g2 f2 | e8- | %295
w: tu- ri sae- * *|* cu-|li, et vi-|* tam ven- tu- ri|sae- cu- li. _|A- * *|men, A- * * men,|A-|
 e2 B4 d2 | e2 c3/2 B/ B2 F2 | EFGA/B/ c2 f2- | f2 B2 !fermata!B4 |][K:Ab][M:4/4] z2!p! E2 F2 G2 | %300
w: |men, A- men, A- men,|A- * * * * * *|* * men.|San- * *|
!<(! A2 d4 d2 | e4 A2 c2!<)! | f4 F4 |!>(! G4 F2 =E2 | !fermata!=E4!>)! z4 | %305
w: * * ctus,|san- * *|* ctus,|san- * *|ctus,|
 z2!p!!<(! F2 B2 d2!<)! | c4 B2 =A2 | B2 c2 d4 |!<(! c4 f4- | f4 f4 | =e2!<)! f4 e2 | %311
w: san- * *||* * ctus,|san- *|* ctus,|san- * *|
!>(! !fermata!=e8!>)! |!pp! c8 | !fermata!c8 |!p! _d3 d d4 | _e4 e4 |!<(! e6 e2!<)! | e4!mf! f3 f | %318
w: ctus,|san-|ctus|Do- mi- nus|De- us|Sa- ba-|oth, Do- mi-|
 d4 B2 B2 | c6 c2 | d2!f! d4 d2 |!<(! c2 e4 e2!<)! |!ff! =d6 B2- | B2 GA B2 f2 | !fermata!e8 || %325
w: nus De- us|Sa- ba-|oth, Do- mi-|nus De- us|Sa- *|* * * * ba-|oth!|
[M:3/4]!mf! c3 c c2 | d2 c2 A2 |!<(! Bc d2!<)! B2 | e2 e4 | e2!f! c4 |!<(! d4 c2!<)! | %331
w: Ple- ni sunt|cae- * li,|cae- * * li|et ter-|ra, ple-|ni sunt|
!<(! de f2!<)! d2 | B4 e2 | e2 c2 C2 |!<(! DEF G A2!<)! |!<(! B4 A2!<)! |!<(! GAB c d2!<)! | %337
w: cae- * * li,|cae- li|et ter- ra|glo- * * ri- a|tu- a,|glo- * * ri- a|
 cded c2 | B2 e2 d2 | c4 z!f! c | c2 c2 z c | d2 d2 z d | d2 d2 z d |!<(! d6!<)! | %344
w: tu- * * * *||a. Ho-|san- na, ho-|san- na, ho-|san- na, ho-|san-|
!>(! d4!>)!!ff! d d | d2 B2 cd | e4 B2 | !fermata!c6 ||[M:4/4] z8 |!p!!<(! =e4!<)! f2 _e2 | %350
w: na in ex-|cel- * * *||sis.||Be- * ne-|
 d3 c B2 c2 | d7/2 c/ c2 =A2 | B2 _g3/2 f/ f2 d2 | e2!>(! A2 de!>)! f!p! d | A2 e2 d2 d2 | %355
w: di- * * ctus,|be- ne- di- *|ctus, be- ne- di- *|ctus, qui ve- * nit in|no- mi- ne Do-|
!>(! c2 B2 f2!>)!!pp! =A2 | =A3 F F2!<(! f2- | f!<)!edc BcdB | _G2 G2!<(! A2 A2!<)! | %359
w: * mi- ni, in|no- mi- ne Do-||* mi- ni, in|
!>(! d4!>)! e2 B2 |!pp! c2 =d2 =e2!p! f2 | =e3 c c2!<(! e2 | f7/2!<)! f/!>(! f2!>)!!p! e2 | %363
w: no- mi- ne|Do- mi- ni, in|no- mi- ne Do-|* mi- ni, Do-|
 d3 d A2 A2 | G2 F2 E4 |!<(! !^!c2!<)!!>(! B2!>)! !fermata!A2 z!p! A ||[M:3/4] c2 c2 z c | %367
w: * mi- ni, in|no- mi- ne|Do- mi- ni. Ho-|san- na, ho-|
 A2 d2 z d | d2 d2 z!<(! d | d6!<)! |!>(! d4!>)!!<(! f f | f2 e2!<)! d2 | e6 | %373
w: san- na, ho-|san- na, ho-|san-|na in ex-|cel- * *||
!>(! !fermata!f6!>)! |][M:4/4]!<(! e4 e4 | d8!<)! | e4!>(! d2 c2!>)! |!<(! B2 A2 c2 B2!<)! | %378
w: sis.|A- gnus|De-|* i, qui|tol- * * *|
 A4!>(! A2!>)! A2 |!<(! G2 F2 G2 B2 | c2 e2!<)!!f! =d4 | e4!p! e4 |!<(! f4 =e4 | f4!<)! A4 | %384
w: * lis pec-|ca- * * ta|mun- * *|di, mi-|* se-|re- re|
 B2 A2 d2 f2- |!>(! f2 =e2!>)! !fermata!e4 |!mf!!<(! e4 e4 | d8!<)! | e2 f2 e2!<(! d2 | %389
w: no- * * *|* * bis.|A- gnus|De-|* * i, qui|
 c4 f2 e2!<)! | d2 e2 e2 A2 | c2!>(! A2 G4 | A4!>)!!pp! c4- | c4!<(! c4 | c6 =e2 | %395
w: tol- * *|lis pec- ca- ta|mun- * *|di, mi-|* se-|re- re|
 g2 c2 =e2 g2!<)! |!ff! f8 |!>(! !fermata!=e4!>)!!mf! c4 | B4 B4 | c4 B2 =A2 | B4 B2 _A2 | %401
w: no- * * *||bis. A-|gnus De-|* i, qui|tol- lis pec-|
 G2 A2 d2 c2 |!>(! c2 =d2!>)! !fermata!e4 |!p!!<(! c4 e4!<)! | d4 d4 | e8 | A2 B2 d4 | c4!<(! A4 | %408
w: ca- * * ta|mun- * di,|do- *|* na|no-|* * bis|pa- *|
 e4 d2 c2 | c2 B2!<)!!>(! c2 d2!>)! |!mf! c4!<(! e4- | e4 e4 | c4 e4!<)! |!f! c4 c4 | d4 e4 | %415
w: |* * cem, _|do- *|* na|no- *|* bis|pa- *|
 f6 B2 |!<(! B8 | e4 c4 | f4!<)! e4- |!ff! e8 |!>(! e8!>)! |!p!!<(! d8!<)! |!>(! !fermata!c8!>)! |] %423
w: |cem,|pa- *|||cem,|pa-|cem.|
V:5
 x8 | x8 | x8 | x8 | x8 | x8 | x8 | x8 | x8 || x8 | x8 | x8 | x8 | x8 | x8 | x8 | x8 | x8 | x8 | %19
w: |||||||||||||||||||
w: |||||||||||||||||||
 x8 | x8 | x8 | x8 | x8 | x8 | x8 | x8 || x8 | x8 | x8 | x8 | x8 | x8 | x8 | x8 | x8 | x8 | x8 | %38
w: |||||||||||||||||||
w: |||||||||||||||||||
 x8 | x8 | x8 | x8 | x8 | x8 | x4 A4 |][M:4/4] x8 | x8 | x8 | x8 | x8 | x8 | x8 | x8 | x8 | x8 | %55
w: |||||||||||||||||
w: |||||||||||||||||
 x8 | x8 | x8 | x8 | x8 | x8 | x8 | x8 | x8 | x8 | x8 | x8 | x8 | x8 | x8 | x8 | x8 | x8 | x8 | %74
w: |||||||||||||||||||
w: |||||||||||||||||||
 x8 | x8 | x8 | x8 | x8 | x8 | x8 | x8 | x8 | x8 | d4 d4 | d4 B4 | c4 c4 | B3 B B4 | G2 B2 c2 e2 | %89
w: |||||||||||||||
w: |||||||||||A- gnus||||
 fe=dc d4 | x8 || x8 | x8 | x8 | x8 | x8 | x8 | x8 | x8 | x8 | x8 | x8 | x8 | x8 | x8 | x8 | x8 | %107
w: ||||||||||||||||||
w: ||||||||||||||||||
 x4 c2 B2 | A2 B2 c2 c2 | d2 e2 f4 | B2 A2 B2 c2 | d2 e2 f4 | e4 f4- | f2 c2 A2 B2 | G2 AB c2 f2- | %115
w: Qui _|_ _ _ _|||||||
w: ||||||||
 f2 =e=d e4 | x8 || x8 | x8 | d4 e3 d | d2 c2 B2 A2 | G4 c3 e | x8 | A4- A3 A | A2 A2 B2 =A2 | %125
w: ||||||||||
w: ||||||||||
 B4 _G3 F | F2 B4 B2 | F4 F2 x2 | x8 | x8 | x8 | x8 | x8 | x2 B4 F2 | F4 E3 F | B2 c2 | =G2 B B | %137
w: ||||||||||||
w: ||||||||||||
 B2 c2 B2 B2 | c4 d3 c | c4 A3 c | c4 A4 | G2 A2 B4 | c8 |][K:Eb][M:4/4] x8 | x8 | x8 | x8 | x8 | %148
w: |||||||||||
w: |||||||||||
 x8 | x8 | x8 | x8 | x8 | x8 | x8 | x8 | x8 | x8 | x8 | x8 | x8 | x8 | x8 | x8 | x8 | x8 | x8 | %167
w: |||||||||||||||||||
w: |||||||||||||||||||
 x8 | x8 | x8 | x8 | x8 | x8 | x8 | x8 | x8 | x8 | x8 | x8 | x8 | x8 | x8 | x8 | x8 | x8 | x8 | %186
w: |||||||||||||||||||
w: |||||||||||||||||||
 x8 | x8 | x8 | x8 | x8 | x8 || x8 | x8 | x8 | x8 | x8 | x8 | x8 | x8 | x8 | x8 | x8 | x8 | x8 | %205
w: |||||||||||||||||||
w: |||||||||||||||||||
 x2 c2 c4 | d4 G2 =A_B | c2 d2 =e2 d2 | c2 _B2 =A4 | G4 F4 || x8 | x8 | x8 | x8 | x8 | x8 | x8 | %217
w: ||||||||||||
w: ||||||||||||
 x8 | x8 | x8 | x8 || x8 | x8 | x8 | x8 | x8 | x8 | x8 | x8 | x8 | x8 | x8 | x8 | x8 | x8 | %235
w: ||||||||||||||||||
w: ||||||||||||||||||
 c3 c c2 x2 | x8 | x8 | x8 | x8 | x8 | c6 _B2 | =A2 B2 c2 de | d2 c2 B4 | x8 | x8 | x8 | x8 | x8 | %249
w: ||||||||||||||
w: ||||||e- rit||||||||
 x8 | x8 | x8 | x8 | x8 | x8 | x8 | x8 | x8 | x8 | x8 | x8 | x8 | x8 | x8 | x4 || c4 | c4 c4 | B8 | %268
w: |||||||||||||||||||
w: |||||||||||||||||||
 B4 x2 B2 | B3 B B4- | B4 x4 | x8 | x4 G4 | =B3 B B2 B2 | x8 | x8 | x8 | x8 | x8 | x8 | x8 | x8 | %282
w: ||||||||||||||
w: ||||||||||||||
 x8 | x8 | x8 | x8 | x8 | x8 | x8 | x8 | x8 | x8 | x8 | x8 | x8 | x8 | x8 | x8 | x8 |] %299
w: |||||||||||||||||
w: |||||||||||||||||
[K:Ab][M:4/4] x8 | x8 | x8 | x8 | x8 | x8 | x8 | x8 | x8 | x8 | x8 | x8 | x8 | x8 | x8 | x8 | x8 | %316
w: |||||||||||||||||
w: |||||||||||||||||
 x8 | x8 | x8 | x8 | x2 A4 A2 | A4 c2 c2 | f4 =d2 e2 | f2 e2 f2 B2 | B8 ||[M:3/4] A3 A A2 | x6 | %327
w: |||||||||||
w: |||||||||||
 x6 | x6 | x2 E2 A2 | FGAB c2 | x6 | x6 | x6 | x6 | x6 | x6 | x6 | x6 | x5 A | x6 | x6 | x6 | x6 | %344
w: |||||||||||||||||
w: ||ple- ni|sunt _ _ _ _||||||||||||||
 x6 | x6 | x6 | x6 ||[M:4/4] x8 | x8 | x8 | x8 | x8 | x8 | x8 | x8 | x8 | x8 | x8 | x8 | x8 | x8 | %362
w: ||||||||||||||||||
w: ||||||||||||||||||
 x8 | x8 | x4 E2!pp! E2- | E2 E2 E2 x A ||[M:3/4] A2 A2 x A | A2 A2 x A | B2 B2 x B | B6 | A4 A F | %371
w: |||||||||
w: ||* Do-|* mi- ni. *||||||
 d2 c2 B2 | E4 A2 | A6 |][M:4/4] c4 c4 | B8- | B2 c2 F2 F2 | G2 A2 x4 | x8 | x8 | x8 | x8 | x8 | %383
w: ||||||||||||
w: ||||||||||||
 x8 | x8 | x8 | c4 A4- | A2 F2 B4 | c2 A2 e2 x2 | x8 | x8 | x8 | x8 | x8 | x8 | x2 c2 G4 | c4 =d4 | %397
w: ||||||||||||||
w: |||A- gnus|_ De- i,|De- * i,|||||||||
 G4 _A4 | x8 | x8 | x8 | x8 | A4 G4 | A4 c4 | d4 B4 | A2 B2 c4- | c2 B2 B4 | E4 F4 | G2 A2 d2 A2 | %409
w: ||||||||||||
w: ||||||||||||
 c2 B2 A2 G2 | A4 c4 | B4 B4 | c4 B4 | F4 =A4 | F8- | F8 | G2 e4 =d2 | B4 c4 | A2 B2 c4 | %419
w: ||||||||||
w: |||||||\- \- cem,|||
 d2 c2 B4 | A8 | F4 G4 | A8 |] %423
w: ||||
w: ||||
V:6
!p!!<(! A,2-!<)! A,3/2 A,/ A,2!<(! A,2!<)! |!>(! G,4 G,4!>)! |!mf!!<(! F,2- F,3/2!<)! F,/ F,2 F,2 | %3
w: Ky- * ri- e e-|lei- son,|Ky- * ri- e e-|
 E,4 E,4 |!f!!<(! D,2 E,3/2!<)! D,/ D,2 C,2 |!>(! B,,4 A,,2!>)!!f! A,2 | D4 A,2 A,2 | %7
w: lei- son,|Ky- * ri- e e-|lei- son, e-|lei- son, e-|
!>(! D,4!>)! E,2!<(! F,2 | E,4!<)!!>(! !fermata!E,4!>)! || z8 | z8 | z8 | z8 | z8 | z8 | z8 | z8 | %17
w: lei- * *|* son.|||||||||
!mf!!<(! E,4 B,,2 C,2!<)! | D,2 F,4 E,2 |!f! A,,8 | A,8- | A,8 |!<(! B,4 A,2 G,2 | F,2 E,2 D,4- | %24
w: Chri- ste e-|lei- * *|son,|e-||lei- * *||
 D,8!<)! |!ff! C,8 |!>(! !fermata!C,8!>)! ||!f!!<(! F,4!<)! B,,3 F, | F,2 F,G, A,2 F,2 | %29
w: ||son.|Ky- * ri-|e, e- * lei- son,|
!<(! E,4!<)! F,3 E, | E,2 D,2 C,2 B,,2 | A,,4 D,3 D, | C,2 D,2!>(! E,4!>)! | F,2 D,2 B,,2 C,2 | %34
w: Ky- * ri-|e e- lei- son,|Ky- * ri-|e e- lei-|son, e- lei- *|
!>(! E,8!>)! |!f! A,4 D,3 A, | A,4!mf! E,2 F,2 | B,4!f!!<(! C3 B, | B,2 A,2 G,2!<)! F,2 | %39
w: son,|Ky- * ri-|e e- lei-|son, Ky- ri-|e _ _ e-|
!f! E,4 A,2 C,2 | D,4 E,4- | E,8- | E,4 E,2!p!!<(! E,2 | C,3!<)! D, D,2 E,2 | %44
w: lei- son, e-|lei- *||* son. _|_ _ _ _|
!>(! F,2 _F,2!>)! !fermata!E,4 |][M:4/4] z8 | z8 | z8 | z8 | z8 | z4 A,,4- | A,,4 B,,4 | %52
w: ||||||bo-|* nae|
 D,2!<(! D,2 E,4!<)! | F,4!>(! E,4!>)! | z2!f! A,2 A,4 | D2 B,2 A,4 | z2!p! A, A,!<(! A,4- | %57
w: vo- lun- ta-|* tis.|Lau- da-|* mus te.|Be- ne- di-|
 A,2 A,2 A,4!<)! |!>(! A,2!>)!!p! C4 B,2 |!<(! A,G,F,E, =D,2!<)! E,2 |!>(! E,4!>)!!f! E,2 E, E, | %61
w: * ci- mus|te. A- do-|ra- * * * * mus|te. Glo- ri- fi-|
 A,4 C,2 E,2 | A,,6 E,2 | E,4 z4 | z8 | z8 | z8 |!f! A,3 G, F,E,D,C, | D,3 C, B,,2 B,2 | %69
w: ca- * *|* mus|te.||||pro- * * * * *|* pter ma- gnam|
 A,3 G, F,E,F,G, | A,2 E,2 C,2 B,,2 | A,,2!f! A,3 A, A,2 | C4 A,4 | F,4 A,B, C2 | D2 C2 B,2 A,2 | %75
w: glo- * * * * *|* ri- am tu-|am. Do- mi- ne|De- us,|Rex cae- * *|le- * * stis,|
 G,2 F,2 E,2 D,2 |!>(! C,2 B,,2 A,,2 A,,2!>)! |!p! E,3 E, E,2!mf! A,,2 | B,,2!<(! C,2 D,4!<)! | %79
w: De- * * us|Pa- * ter om-|ni- po- tens. Do-|mi- ne Fi-|
 D,4!<(! D4- | D2 C2 B,2 A,2!<)! |!f! _G,2 G,4 G,2 | E,4 E,4 | F,3 F, F,4 | B,F,B,C D2 B,2 | %85
w: li u-|* ni- ge- ni-|te Je- su|Chri- ste.|Do- mi- ne|De- * * * * us,|
!ff! D,2 _G,4 E,2 | C,2 F,2 =A,2 F,2 | =D2 B,2 F,4 | E,2 G,2 =A,2 C2 | =DCB,=A, B,4 | %90
w: A- * gnus|De- * * i|Fi- li- us|Pa- * * *||
!>(! !fermata!B,8!>)! || z4!p! B,4 | E,4 E,2 E,2 |!<(! B,6!<)!!>(! B,,2!>)! | A,,8 | B,,4 B,,4 | %96
w: tris.|Qui|tol- lis pec-|ca- ta|mun-|* di,|
"^string."!<(! E,6 E,2 | B,,2 B,,2!<)! C,4 | F,4 F,4 | F,4 F,2 F,2 |!>(! C,6 F,2!>)! | B,,8 | %102
w: mi- se-|re- re no-|bis. Qui|tol- lis pec-|ca- ta|mun-|
 C,4 C,4 |!<(! C6 B,2 | A,2 G,2 F,2 E,2!<)! | D,6 B,,2 | C,2 D,2 E,4 | A,4!f! C4 | %108
w: * di,|su- sci-|pe _ de- pre|ca- ti-|o- nem no-|stram. Qui|
!<(! F,2 G,2 A,2 =A,2 | B,2 C2!<)! B,4 |!ff! B,2 F,2 G,2 A,2 | B,2 C2 D4 |!>(! A,4!>)!!p! F,4- | %113
w: se- * des *||Pa- * * *||tris, mi-|
!<(! F,2 E,2 D,2 B,,2!<)! |!f! C,8- | C,8 |!>(! !fermata!F,8!>)! || %117
w: * se- re- re|no-||bis.|
[K:bass]!f!!<(! (F,4 _G,3)!<)! F, | F,2 E,2 D,2 C,2 | B,,8 | B,,2 C,2 D,2 F,2 | E,4 A,3 B, | %122
w: Quo- * ni-|am tu so- lus|san-|ctus, tu so- lus|san- * *|
 B,4 z4 | C4 D3 C | C2 A,2 E,2 F,2 | B,4 B,3 B, | B,2!p!!<(! B,,4 B,,2!<)! | =A,,4 B,,2!f! B,,2 | %128
w: ctus.|Do- * mi-|nus. Tu so- lus|al- tis- si-|mus, Je- su|Chri- ste. Cum|
 C,2 G,2 F,2 =E,2 | F,2 G,2 A,2 B,2 | A,2 F,2 B,2 CD | E2 D2 C2 B,2 |!ff! A,4- A,3 A, | %133
w: san- cto Spi- ri-|tu, cum san- cto|Spi- * * * *|* ri- tu, in|glo- * ri-|
 A,2 _G,2 E,2 C2 | B,8 | B,2 _A,2 | B,2 B, B, | B,2 A,2 D2 D2 | C4 A,4 | A,4 A,4 | A,4 A,4 | %141
w: a De- * i||tris, in|glo- ri- a|De- i Pa- tris.|A- *|men, A-|men, A-|
 B,2 C2 D4 | !fermata!C8 |][K:Eb][M:4/4]!<(! E,4 F,4!<)! |!>(! E,4!>)! z2 E,2 |!<(! C2 C2 B,4!<)! | %146
w: |men.|Pa- *|trem om-|ni- po- ten-|
!>(! B,2!>)!!<(! B,2 A,4 | E,4!<)! E,4 | E,2 D,2 C,4 | B,,4 z4 | z4 z2!mf! F,2- | %151
w: tem, fac- to-|rem coe-|li et ter-|rae,|om-|
 F, F, F,2 F,2 F,2 | F,6 F,2 | B,2!>(! A,2 G,2 F,2!>)! | E,4 z4 | z8 | z8 | z8 | z8 | %159
w: * ni- um et in-|vi- si-|bi- * * li-|um.|||||
 z2!mf! F,3 F, F,2 | C,6 B,,2 | A,,2 A,2 A,2 B,2 | E,4 E,2 E,2 | D,4!>(! C,4 | B,,4!>)! B,,2 B,2- | %165
w: Fi- li- um|De- i|u- ni- ge- ni-|tum. Et ex|Pa- tre|na- tum an-|
 B,2 A,2 G,2 E,2 | A,6 G,2 |!>(! F,2 E,2 B,,4!>)! |!mf!!<(! E,2 F,2!<)!!>(! E,4!>)! | z4 z2 D,2- | %170
w: * te om- *|ni- a|sae- cu- la.|De- * um|lu-|
 D,2 E,2 D,4 | z8 |!ff! E,2 C2 G,4 | A,2 A,2 B,2 B,2 | B,,8 | B,,4 z4 | z8 | z8 | %178
w: * * men,||De- um ve-|rum de De- o|ve-|ro.|||
 z2!mf!!<(! B,4 A,2!<)! | G,4 E,2 A,2 | G,2 E,2 F,3 F, | E,4 F,4 |!<(! G,4 G,4!<)! | %183
w: Pa- *|* tri: per-|* quem om- ni-|a fa-|* cta|
!>(! G,4!>)!!p! G,4 | C,4 C,2!<(! _B,,2 | A,,3 A,,!<)!!>(! A,,2!>)! A,,2 | %186
w: sunt. Qui|pro- pter nos|ho- mi- nes, et|
 B,,2 B,,2!<(! B,2 B, A, | G,4!<)!!>(! G,2!>)! G,2 | A,G,!<(! F,2 E,2 F,2!<)! | G,2 F,2 B,2 F,2 | %190
w: pro- pter no- stram sa-|lu- tem de-|scen- * * dit de|coe- * * *|
 E,2 G,2 =A,2 C2- |!>(! C2 B,2!>)! !fermata!B,4 ||!p! B,,4 B,2 B,2 | F,6 F,2 | C,2 C2 B,3 A, | %195
w: |* * lis.|Et in- car-|na- tus|est de Spi- ri-|
 G,4 E,4 | B,,8 | B,,4 z4 | z8 | z8 | z2 C,4!<(! C,2 | C6 B,2!<)! |!ff! =A,3 A, !fermata!A,4 | %203
w: ut _|san-|cto|||ex Ma-|ri- a|vir- gi- ne:|
 z2!pp! F,,2 D,4 | C,6 C,2 |!<(! =A,4 =E,4 | D,4 C,4-!<)! | C,8- |!>(! C,8 | %209
w: Et ho-|mo, et|ho- *|mo fa-|||
 C,4!>)! !fermata!F,,4 ||!p!!<(! (F,4!<)! A,3) F, | F,6 F,2 | (=E,4 F,3) E, | %213
w: ctus est.|Cru- * ci-|fi- xus|e- * ti-|
!<(! =E,4!<)! C,2!f! C2 | _D4 C4 | z8 | z4!p! F,4- |!<(! F,6 E,2 | _D,4!<)!!>(! A,,4!>)! | %219
w: am _ pro|no- bis:||pas-|* sus|et se-|
!pp! E,2 F,2 E,2 E,2 | !fermata!A,,8 ||!f! E,2 A,4 G, F, | G,2 E,2 A,2 C2- | C B, A,4 G,2 | %224
w: pul- * * tus|est.|Et re- * sur-|re- xit ter- *|* ti- a di-|
 A, A, F,2 B,3 A, | G,F,E,D, C,2 C2 | B,2 B, =A, B,2 C2 | C2 DC B,A,G,F, | E,2 D,2 E,2 E,2 | %229
w: e, se- cun- dum scri-|ptu- * * * * *|ras. Et a- scen- dit|in cae- * * * * *|* * * lum:|
 F,4 B,,2 D,2 | E,8- | E,2 F,2 G,2 F,2 | E,4 F,2!mf! F,2 | G,3 G, G,2!<(! F,2 | %234
w: se- det ad|dex-|* te ram _|Pa- tris. Et|i- te- rum ven-|
 E,3 D, C,2 B,,2!<)! | A,,3 A, !fermata!A,2!f! A, G, | F,2 E,2 D,2 C,2 | B,,4 B,,2!>(! F,2 | %238
w: tu- rus est cum|glo- ri- a, ju- di-|ca- * * re|vi- vos et|
 D,2!>)! C,2!p! =B,,4 | z4!f! =B,,2 B,,2 | C,4 C,2 C2 | C4 C4 |!<(! F,8-!<)! | F,4 !fermata!B,,4 | %244
w: mor- tu- os:|cu- jus|re- gni non|e- rit|fi-|* nis.|
 z2!f! B,4 B,2 | B,2 A,G, C2 B,2 | A,2 A,4 A,2 | A,3 G, F,2 E,2 | D,2 E,2 F,2 B,2 | B,4 B,4 | z8 | %251
w: Et in|Spi- * * * ri-|tum san- ctum,|Do- mi- num et|vi- * vi- fi-|can- tem:||
 z2 A, A, E,4 |!<(! C,4 B,,2 =A,,2!<)! |!>(! B,,4!>)!!f! B,4 | E,2 A,4 G, F, | %255
w: Fi- li- o-|que pro- ce-|dit. Qui|cum Pa- tre et|
!>(! G,2 E,2!>)! F,4 |!p!!<(! F,2 F,2 _D,2 D,2 | _D,4 B,,4!<)! | A,,2!f! F,,2 F,2 F,2 | %259
w: Fi- li- o|si- mul a- do-|ra- *|tur et con- glo-|
 _D,2 E, F, E,2 F,2 | _D,2 D,2 D,2 D,2 | _D,4 B,,4 |!<(! C,D,=E,F, G,2 A,B, | C4 C4!<)! | %264
w: * ri- fi- ca- tur:|qui lo- cu- tus|est per|Pro- * * * * * *|* phe-|
!>(! !fermata!C,4!>)! ||!f! F,4 | F,4 F,4 | F,8 | F,4 z2 B,2 | G,3 G, G,4- | G,4 z2!<(! B,2 | %271
w: tas.|Et|u- nam|san-|ctam ca-|tho- li- cam|_ et|
 G,2 =A,2 B,3 B,!<)! | B,4!ff! E,4 | G,3 G, !fermata!G,2!p! G,2 | C,3 C, C,4 | F,4 F,2 F,2 | %276
w: a- po- sto- li-|cam Ec-|cle- si- am. Con-|fi- te- or|u- num ba-|
!<(! G,4!<)!!>(! F,4!>)! |!p! D,3 D, F,2 F,2 |!<(! G,2 G,2 A,2 F,2!<)! |!>(! G,8!>)! | %280
w: pti- sma|in re- mis- si-|o- nem pec- ca-|to-|
 C,2!f! C,2 B,,2 A,,2 | G,,4 A,,4 | B,,2 B,4 A,2 | G,2 F,2 E,2 D,2 | E,2 F,2 G,2 A,2 | E,4 E,4 | %286
w: rum. Et _ ex-|pe- *|cto re- sur-|re- cti- o- *|* nem mor- tu-|o- rum.|
!f! E,2 A,4 G, F, | G,3 E, F,2 G,A, | B,6 A,2 | G,4 E,2 A,2- | A,2 B, A, G,2 E,2 | A,2 B,2 C2 D2 | %292
w: Et vi- tam ven-|tu- ri sae- * *|* cu-|li, et vi-|* tam ven- tu- ri|sae- cu- li. _|
 E3 D CB,A,G, | A,2 C2 B,2 B,,2 | E,2 A,3/2 G,/ G,2 F,2 | E,8- | E,8- | E,8- | E,4 !fermata!E,4 |] %299
w: A- * * * * *|* * * men,|A- * men, A- men,|A-|||* men.|
[K:Ab][M:4/4]!p! A,,8- |!<(! A,,4 A,4- | A,2 G,2 F,2 E,2!<)! | D,4 D,4 |!>(! C,8 | %304
w: San-|||* ctus,|san-|
 !fermata!C,4!>)! z4 |!p! B,,8- | B,,8- | B,,4 B,4 |!<(! =A,4 F,4 | B,4 D4 | C8!<)! | %311
w: ctus,|san-||* ctus,|san- *|||
!>(! !fermata!C8!>)! |!pp! C8 | !fermata!C,8 |!p! F,3 B, B,4 | C4 C4 |!<(! B,4 B,4!<)! | A,4 z4 | %318
w: ctus,|san-|ctus|Do- mi- nus|De- us|Sa- ba-|oth,|
 z8 | z8 |!f! D,3 D, D,4 |!<(! A,,4 A,2 A,2!<)! |!ff! B,8 | B,,4 B,,4 | !fermata!E,8 ||[M:3/4] z6 | %326
w: ||Do- mi- nus|De- * us|Sa-|* ba-|oth!||
 z6 | z6 | z6 |!f! A,,3 A,, A,,2 |!<(! D,E,F,G, A,2!<)! |!<(! B,C D2!<)! B,2 | G,2 E,4 | A,6 | z6 | %335
w: |||Ple- ni sunt|cae- * * * *|* * * li|et ter-|ra||
!<(! B,,C,D, E, F,2!<)! |!<(! E,F,G, A, B,2!<)! | A,6 | E,6 | A,,4!f! A,2 | A,B, C2 A,2 | %341
w: glo- * * ri- a,|glo- * * ri *|tu-||a. Ho-|san- * * na,|
 z F, A,2 D2 | z F, D2 B,2 | z D, _G,B, D2- | D2 A,2!ff! A, D | B,2 D2 C2 | B,6 | !fermata!A,6 || %348
w: ho- san- na,|ho- san- na,|ho- san- * *|* na in ex-|cel- * *||sis.|
[M:4/4] z8 | z8 | z8 | z8 | z8 | z8 | z8 | z8 | z8 | z8 | z8 | z8 | z8 | z8 | z8 | z8 | z8 | %365
w: |||||||||||||||||
!<(! E,,2!<)!!>(! E,,2!>)! !fermata!A,,2 z!p! E, ||[M:3/4] E,2 E,2 z E, | D,2 D,2 z D, | %368
w: Do- mi- ni. Ho-|san- na, ho-|san- na, ho-|
 F,2 F,2 z!<(! F, | _G,6!<)! |!>(! A,4!>)!!<(! D, D, | E,6-!<)! | E,6 |!>(! !fermata!D,6!>)! |] %374
w: san- na, ho-|san-|na in ex-|cel-||sis.|
[M:4/4]!<(! A,,8- | A,,4 A,,4!<)! | A,,4!>(! D,2 D,2!>)! |!<(! E,2 F,2 A,2 G,2!<)! | %378
w: A-|* gnus|De- i, qui|tol- * * *|
 F,2 E,2!>(! D,2!>)! C,2 |!<(! B,,2 =A,,2 B,,4- |!f! B,,8!<)! | E,4!p! E,4 |!<(! B,4 G,4 | %383
w: * * lis pec-|ca- ta mun-||di, mi-|* se-|
 A,2!<)! F,2 D,2 C,2 | B,,2 C,2 D,4 |!>(! C,4!>)! !fermata!C,4 |!mf!!<(! A,,4 A,4 | D,8!<)! | %388
w: re- * * re|no- * *|* bis.|A- gnus|De-|
 C,2 D,2!<(! E,4 | F,2 A,2 D2 C2!<)! | B,2 A,2 G,2 F,2 | =E,2 F,2 C,4 | F,4!pp! F,4 | A,6!<(! F,2 | %394
w: * i, qui|tol- * * *|lis pec- ca- ta|mun- * *|di, mi-|* se-|
 C,2 =E,2 G,4- | G,8!<)! |!ff! =A,4 =B,4 |!>(! !fermata!C4!>)!!mf! F,4- |!<(! F,2 B,2!<)! D4 | %399
w: re- re no-|||bis. A-|* gnus De-|
 C4 F,2!<(! F,2 | F,4 G,2 A,2!<)! | B,2 C2 F,G, A,2 |!>(! A,4!>)! !fermata!B,4 |!p! A,8 | B,4 E,4 | %405
w: * i, qui|tol- lis pec-|ca- * ta _ _|mun- di,|do-|* na|
 A,4 A,,4 | D,4 B,,4 | C,4!<(! D,4 | B,,2 C,2 D,2 F,2 | E,4!<)!!>(! E,4!>)! |!mf! A,,4 A,4 | %411
w: no- *|* bis|pa- *||* cem,|do- *|
!<(! E,4 E,4 | A,4 E,4!<)! |!f! F,6 E,2 | D,4 C,4 | D,4 =D,4 |!<(! E,4 F,4 | E,4 A,4 | %418
w: * na|no- *|* bis|pa- *||* cem,|pa- *|
 F,2 G,2!<)! A,4 |!ff! G,2 A,2 D4 |!>(! C8!>)! |!p!!<(! A,4 E,4!<)! |!>(! !fermata!E,8!>)! |] %423
w: ||cem,|pa- *|cem.|
V:7
 x8 | x8 | x8 | x8 | x8 | x8 | x8 | x8 | x8 || x8 | x8 | x8 | x8 | x8 | x8 | x8 | x8 | x8 | x8 | %19
w: |||||||||||||||||||
w: |||||||||||||||||||
 x8 | x8 | x8 | x8 | x8 | x8 | x8 | x8 || x8 | x8 | x8 | x8 | x8 | x8 | x8 | x8 | x8 | x8 | x8 | %38
w: |||||||||||||||||||
w: |||||||||||||||||||
 x8 | x8 | x8 | x8 | E,4 A,,4- | A,,8- | !fermata!A,,8 |][M:4/4] x8 | x8 | x8 | x8 | x8 | x8 | x8 | %52
w: ||||||||||||||
w: ||||||||||||||
 x8 | x8 | x8 | x8 | x8 | x8 | x8 | x8 | x8 | x8 | x8 | x8 | x8 | x8 | x8 | x8 | x8 | x8 | x8 | %71
w: |||||||||||||||||||
w: |||||||||||||||||||
 x8 | x8 | x8 | x8 | x8 | x8 | A,,3 A,, A,,2 A,,2 | x8 | x8 | x8 | x8 | x8 | x8 | B,,4 B,,4 | %85
w: ||||||||||||||
w: |||||||||||||De- us|
 _G,,4 G,,4 | F,,4 F,,4 | B,,3 B,, B,,4 | B,,8- | B,,8 | B,,8 || x8 | x8 | x8 | x8 | x8 | x8 | x8 | %98
w: |||||||||||||
w: A- gnus|De- i||||||||||||
 x8 | x8 | x8 | x8 | x8 | x8 | x8 | x8 | x4 E,4 | A,,4 C,4 | F,,2 G,,2 A,,2 =A,,2 | %109
w: ||||||||||* * * ad|
w: |||||||||||
 B,,2 C,2 (D,2 =D,2) | E,2 F,2 x4 | x8 | x8 | x8 | x8 | x8 | F,,8 ||[K:bass] x8 | x8 | x8 | x8 | %121
w: dex- te- ram _|_ _|||||||||||
w: ||||||||||||
 E,4 A,,3 E, | E,4 x4 | A,,4 D,3 A,, | A,,2 A,2 E,2 F,2 | B,,4 E,3 B,, | B,,2 x6 | x8 | x8 | x8 | %130
w: |||||||||
w: |||||||||
 x8 | x8 | A,4 D,3 A, | A,2 E,4 F,2 | B,,4 E,3 B,, | B,,2 A,2 | =G,2 F, F, | E,2 E,2 E,2 E,2 | %138
w: ||||Pa- * *||||
w: ||||||||
 A,,4 D,3 A, | A,4 D,3 A, | A,4 A,,4 | E,8 | A,,8 |][K:Eb][M:4/4] x8 | x8 | x8 | x8 | x8 | x8 | %149
w: |||||||||||
w: |||||||||||
 x8 | x8 | x8 | x8 | x8 | x8 | x8 | x8 | x8 | x8 | x8 | x8 | x8 | x8 | x8 | x8 | x8 | x8 | x8 | %168
w: |||||||||||||||||||
w: |||||||||||||||||||
 x8 | x8 | x8 | x8 | x8 | x8 | x8 | x8 | x8 | x8 | x8 | x8 | x8 | x8 | x8 | x8 | x8 | x8 | x8 | %187
w: |||||||||||||||||||
w: |||||||||||||||||||
 x8 | x8 | x4 E,2 D,2 | C,4 F,4 | B,,4 B,,4 || x8 | x8 | x8 | x8 | x8 | x8 | x8 | x8 | x8 | x8 | %202
w: |||||||||||||||
w: |||||||||||||||
 x8 | x8 | x8 | x8 | x8 | x8 | x8 | x8 || x8 | x8 | x8 | x8 | x8 | x8 | x8 | x8 | x8 | x8 | x8 || %221
w: |||||||||||||||||||
w: |||||||||||||||||||
 x8 | x8 | x8 | x8 | x8 | x8 | x8 | x8 | x8 | x8 | x8 | x8 | x8 | x8 | A,,3 A,, A,,2 x2 | x8 | x8 | %238
w: |||||||||||||||||
w: |||||||||||||||||
 x8 | x8 | x8 | x8 | x8 | x8 | B,,6 B,,2 | B,,6 B,,2 | B,,8 | B,,4 B,,4 | B,,6 B,,2 | E,8 | x8 | %251
w: |||||||||||||
w: |||||||Spi- ri-|tum|san- ctum,|Do- mi-|num.||
 x8 | x8 | x8 | x8 | x8 | x8 | x8 | x8 | x8 | x8 | x8 | x8 | x8 | x4 || x4 | x8 | B,,8 | %268
w: |||||||||||||||||
w: |||||||||||||||||
 B,,4 z2 B,,2 | G,,3 G,, G,,4- | G,,4 z2 G,2 | G,2 F,2 E,3 E, | E,4 C,4 | G,,3 G,, G,,2 G,2 | x8 | %275
w: |||||||
w: |||||||
 x8 | x8 | x8 | x8 | x8 | x8 | x8 | x8 | x8 | x8 | x8 | x8 | x8 | x8 | x8 | x8 | x8 | x8 | x8 | %294
w: |||||||||||||||||||
w: |||||||||||||||||||
 x8 | x8 | x8 | x8 | x8 |][K:Ab][M:4/4] x8 | x8 | x8 | x8 | x8 | x8 | x8 | x8 | x8 | x8 | x8 | x8 | %311
w: |||||||||||||||||
w: |||||||||||||||||
 x8 | x8 | x8 | B,,3 B,, B,,4 | A,,4 A,,4 | E,6 E,2 | A,,4 x4 | x8 | x8 | x8 | x8 | x8 | x8 | x8 || %325
w: ||||||||||||||
w: ||||||||||||||
[M:3/4] x6 | x6 | x6 | x6 | x6 | x6 | x6 | x6 | x6 | x6 | x6 | x6 | x6 | x6 | x4 z A, | %340
w: |||||||||||||||
w: ||||||||||||||Ho-|
 A,2 A,2 z A, | D,2 D,2 z D, | B,,2 B,,2 z B,, | _G,,6 | D,4 D, D, | E,6- | E,6 | A,,6 || %348
w: ||||||||
w: san- na, ho-|san- na, ho-|san- na, ho-|san-|na * *||||
[M:4/4] x8 | x8 | x8 | x8 | x8 | x8 | x8 | x8 | x8 | x8 | x8 | x8 | x8 | x8 | x8 | x8 | x8 | %365
w: |||||||||||||||||
w: |||||||||||||||||
 x7 A,, ||[M:3/4] A,,2 A,,2 x A,, | x6 | B,,2 B,,2 x B,, | _G,,6 | D,4 D, D, | B,,6 | A,,6 | x6 |] %374
w: |||||||||
w: |||||||||
[M:4/4] x8 | x8 | x8 | x8 | x8 | x8 | x8 | x8 | x8 | x8 | x8 | x8 | x8 | x8 | x8 | x8 | x8 | x8 | %392
w: ||||||||||||||||||
w: ||||||||||||||||||
 x8 | x8 | x4 G,4 | G,4 G,,4- | G,,8 | C,4 F,4 | B,,6 D,2 | F,3 E, D,2 C,2 | B,,4 B,,2 B,,2 | %401
w: |||||||||
w: |||||* A-|* gnus|De- * i, *||
 E,4 E,4 | E,4 E,4 | A,,4!<(! A,4 | x4!<)! x4 | x8 | x8 | x8 | x8 | x8 | x8 | x8 | x8 | x8 | x8 | %415
w: ||||||||||||||
w: ||||||||||||||
 x8 | x8 | E,8- | E,8- | E,8 | A,,8 | A,,8 | A,,8 |] %423
w: ||||||||
w: ||||||||

